;FLAVOR:Marlin
;TIME:14465
;Filament used: 8.64271m
;Layer height: 0.2
;MINX:0
;MINY:92.2
;MINZ:0.2
;MAXX:220
;MAXY:127.8
;MAXZ:12.2
;TARGET_MACHINE.NAME:Creality Ender-3 Pro
;Generated with Cura_SteamEngine 5.9.0
M82 ;absolute extrusion mode
; Ender 3 Custom Start G-code
G92 E0 ; Reset Extruder
G28 ; Home all axes
G1 Z5.0 F3000 ; Move Z Axis up a bit during heating to not damage bed
M104 S175 ; Start heating up the nozzle most of the way
M190 S60 ; Start heating the bed, wait until target temperature reached
M109 S225.0 ; Finish heating the nozzle
G1 Z2.0 F3000 ; Move Z Axis up little to prevent scratching of Heat Bed
G1 X0.1 Y20 Z0.3 F5000.0 ; Move to start position
G1 X0.1 Y200.0 Z0.3 F1500.0 E15 ; Draw the first line
G1 X0.4 Y200.0 Z0.3 F5000.0 ; Move to side a little
G1 X0.4 Y20 Z0.3 F1500.0 E30 ; Draw the second line
G92 E0 ; Reset Extruder
G1 Z2.0 F3000 ; Move Z Axis up little to prevent scratching of Heat Bed
G1 X5 Y20 Z0.3 F5000.0 ; Move over to prevent blob squish
G92 E0
G92 E0
G1 F1500 E-6.5
;LAYER_COUNT:61
;LAYER:0
M107
G0 F6000 X0.00 Y97.664 Z0.2
;TYPE:SKIRT
G1 F1500 E0
G1 F1200 X0.201 Y97.399 E0.01106
G1 X0.866 Y96.636 E0.04473
G1 X1.662 Y95.838 E0.08221
G1 X2.409 Y95.193 E0.11504
G1 X2.846 Y94.862 E0.13327
G1 X4.079 Y94.052 E0.18234
G1 X4.521 Y93.806 E0.19917
G1 X5.463 Y93.36 E0.23383
G1 X6.607 Y92.917 E0.27463
G1 X7.366 Y92.685 E0.30103
G1 X8.374 Y92.447 E0.33548
G1 X9.014 Y92.34 E0.35706
G1 X10.319 Y92.214 E0.40067
G1 X10.727 Y92.2 E0.41424
G1 X209.163 Y92.2 E7.01425
G1 X210.207 Y92.253 E7.04902
G1 X210.63 Y92.297 E7.06317
G1 X212.075 Y92.54 E7.1119
G1 X212.483 Y92.64 E7.12587
G1 X213.816 Y93.065 E7.17241
G1 X214.389 Y93.293 E7.19292
G1 X215.561 Y93.858 E7.23619
G1 X216.067 Y94.146 E7.25556
G1 X217.075 Y94.816 E7.29582
G1 X217.894 Y95.439 E7.33004
G1 X218.244 Y95.744 E7.34548
G1 X219.198 Y96.695 E7.39028
G1 X219.66 Y97.226 E7.41369
G1 X220 Y97.681 E7.43259
G0 F6000 X220 Y98.347
G1 F1200 X219.34 Y97.467 E7.46917
G1 X218.915 Y96.978 E7.49072
G1 X217.981 Y96.046 E7.53461
G1 X217.631 Y95.741 E7.55005
G1 X216.853 Y95.149 E7.58256
G1 X215.869 Y94.494 E7.62188
G1 X215.363 Y94.206 E7.64124
G1 X214.241 Y93.665 E7.68267
G1 X213.668 Y93.437 E7.70318
G1 X212.388 Y93.029 E7.74787
G1 X211.98 Y92.929 E7.76184
G1 X210.589 Y92.695 E7.80875
G1 X210.166 Y92.651 E7.8229
G1 X209.163 Y92.6 E7.8563
G1 X10.741 Y92.6 E14.45585
G1 X10.333 Y92.614 E14.46942
G1 X9.08 Y92.735 E14.51129
G1 X8.44 Y92.842 E14.53287
G1 X7.483 Y93.068 E14.56558
G1 X6.724 Y93.3 E14.59198
G1 X5.608 Y93.733 E14.63179
G1 X4.716 Y94.156 E14.66463
G1 X4.274 Y94.402 E14.68145
G1 X3.088 Y95.181 E14.72865
G1 X2.651 Y95.512 E14.74688
G1 X1.945 Y96.121 E14.77789
G1 X1.168 Y96.899 E14.81446
G1 X0.503 Y97.662 E14.84812
G1 X0.181 Y98.085 E14.86581
G1 X0.00 Y98.359 E14.87673
G0 F6000 X0.00 Y99.086
G1 F1200 X0.5 Y98.327 E14.90696
G1 X0.805 Y97.925 E14.92374
G1 X1.47 Y97.162 E14.9574
G1 X2.207 Y96.424 E14.99209
G1 X2.893 Y95.831 E15.02225
G1 X3.33 Y95.5 E15.04049
G1 X4.469 Y94.752 E15.08581
G1 X4.911 Y94.506 E15.10263
G1 X5.779 Y94.095 E15.13458
G1 X6.841 Y93.683 E15.17246
G1 X7.6 Y93.451 E15.19886
G1 X8.506 Y93.237 E15.22982
G1 X9.146 Y93.13 E15.25141
G1 X10.347 Y93.014 E15.29154
G1 X10.755 Y93 E15.30511
G1 X209.163 Y93 E21.90419
G1 X210.125 Y93.049 E21.93623
G1 X210.548 Y93.093 E21.95037
G1 X211.885 Y93.318 E21.99547
G1 X212.293 Y93.418 E22.00944
G1 X213.52 Y93.809 E22.05227
G1 X214.093 Y94.037 E22.07278
G1 X215.165 Y94.554 E22.11237
G1 X215.671 Y94.842 E22.13173
G1 X216.611 Y95.467 E22.16928
G1 X217.368 Y96.043 E22.20092
G1 X217.718 Y96.348 E22.21636
G1 X218.632 Y97.261 E22.25932
G1 X219.02 Y97.708 E22.27901
G1 X219.664 Y98.563 E22.31461
G1 X220 Y99.079 E22.33509
G0 F6000 X220 Y99.873
G1 F1200 X219.764 Y99.449 E22.35123
G1 X219.344 Y98.804 E22.37683
G1 X218.7 Y97.949 E22.41243
G1 X218.33 Y97.524 E22.43118
G1 X217.455 Y96.65 E22.47231
G1 X217.105 Y96.345 E22.48775
G1 X216.369 Y95.785 E22.51851
G1 X215.473 Y95.19 E22.55428
G1 X214.967 Y94.902 E22.57365
G1 X213.945 Y94.409 E22.61139
G1 X213.372 Y94.181 E22.6319
G1 X212.198 Y93.807 E22.67288
G1 X211.79 Y93.707 E22.68685
G1 X210.507 Y93.491 E22.73013
G1 X210.084 Y93.447 E22.74427
G1 X209.163 Y93.4 E22.77494
G1 X10.769 Y93.4 E29.37356
G1 X10.361 Y93.414 E29.38713
G1 X9.212 Y93.525 E29.42553
G1 X8.572 Y93.632 E29.44711
G1 X7.717 Y93.834 E29.47633
G1 X6.958 Y94.066 E29.50273
G1 X5.924 Y94.468 E29.53963
G1 X5.106 Y94.856 E29.56974
G1 X4.664 Y95.102 E29.58656
G1 X3.572 Y95.819 E29.63001
G1 X3.135 Y96.15 E29.64825
G1 X2.49 Y96.707 E29.67659
G1 X1.772 Y97.425 E29.71036
G1 X1.107 Y98.188 E29.74403
G1 X0.834 Y98.547 E29.75903
G1 X0.179 Y99.54 E29.79859
G1 X0.00 Y99.855 E29.81064
G0 F6000 X0.00 Y100.75
G1 F1200 X0.271 Y100.188 E29.83139
G1 X0.527 Y99.738 E29.84861
G1 X1.153 Y98.789 E29.88643
G1 X1.409 Y98.451 E29.90053
G1 X2.074 Y97.688 E29.93419
G1 X2.773 Y96.99 E29.96705
G1 X3.377 Y96.469 E29.99358
G1 X3.814 Y96.138 E30.01181
G1 X4.859 Y95.452 E30.05339
G1 X5.301 Y95.206 E30.07021
G1 X6.095 Y94.83 E30.09943
G1 X7.075 Y94.449 E30.1344
G1 X7.834 Y94.217 E30.1608
G1 X8.638 Y94.027 E30.18828
G1 X9.278 Y93.92 E30.20986
G1 X10.375 Y93.814 E30.24652
G1 X10.783 Y93.8 E30.2601
G1 X209.143 Y93.8 E36.85758
G1 X210.043 Y93.845 E36.88755
G1 X210.466 Y93.889 E36.90169
G1 X211.695 Y94.096 E36.94314
G1 X212.103 Y94.196 E36.95712
G1 X213.224 Y94.553 E36.99625
G1 X213.797 Y94.781 E37.01676
G1 X214.769 Y95.25 E37.05265
G1 X215.275 Y95.538 E37.07202
G1 X216.147 Y96.118 E37.10685
G1 X216.842 Y96.647 E37.1359
G1 X217.192 Y96.952 E37.15134
G1 X218.047 Y97.807 E37.19156
G1 X218.38 Y98.19 E37.20844
G1 X219.024 Y99.045 E37.24404
G1 X219.414 Y99.644 E37.26781
G1 X219.866 Y100.456 E37.29872
G1 X220 Y100.742 E37.30923
G0 F6000 X220 Y101.744
G1 F1200 X219.863 Y101.391 E37.32182
G1 X219.516 Y100.651 E37.34901
G1 X219.064 Y99.839 E37.37992
G1 X218.704 Y99.286 E37.40186
G1 X218.06 Y98.431 E37.43746
G1 X217.764 Y98.09 E37.45248
G1 X216.929 Y97.254 E37.49178
G1 X216.579 Y96.949 E37.50722
G1 X215.905 Y96.437 E37.53537
G1 X215.077 Y95.886 E37.56845
G1 X214.571 Y95.598 E37.58782
G1 X213.649 Y95.153 E37.62187
G1 X213.076 Y94.925 E37.64238
G1 X212.008 Y94.585 E37.67966
G1 X211.6 Y94.485 E37.69363
G1 X210.425 Y94.287 E37.73326
G1 X210.002 Y94.243 E37.74741
G1 X209.143 Y94.2 E37.77601
G1 X10.797 Y94.2 E44.37303
G1 X10.389 Y94.214 E44.38661
G1 X9.344 Y94.315 E44.42153
G1 X8.704 Y94.422 E44.44311
G1 X7.951 Y94.6 E44.46884
G1 X7.192 Y94.832 E44.49524
G1 X6.24 Y95.203 E44.52922
G1 X5.496 Y95.556 E44.55661
G1 X5.054 Y95.802 E44.57344
G1 X4.056 Y96.457 E44.61314
G1 X3.619 Y96.788 E44.63137
G1 X3.035 Y97.293 E44.65705
G1 X2.375 Y97.951 E44.68805
G1 X1.728 Y98.693 E44.72079
G1 X1.472 Y99.031 E44.7349
G1 X0.875 Y99.936 E44.77096
G1 X0.619 Y100.386 E44.78818
G1 X0.166 Y101.326 E44.82288
G1 X0.00 Y101.742 E44.83778
G0 F6000 X0.00 Y103.005
G1 F1200 X0.289 Y102.098 E44.86944
G1 X0.538 Y101.474 E44.89179
G1 X0.967 Y100.584 E44.92465
G1 X1.223 Y100.134 E44.94187
G1 X1.791 Y99.273 E44.97617
G1 X2.047 Y98.935 E44.99028
G1 X2.676 Y98.214 E45.0221
G1 X3.297 Y97.595 E45.05126
G1 X3.861 Y97.107 E45.07607
G1 X4.298 Y96.776 E45.0943
G1 X5.249 Y96.152 E45.13213
G1 X5.691 Y95.906 E45.14896
G1 X6.411 Y95.565 E45.17546
G1 X7.309 Y95.215 E45.20751
G1 X8.068 Y94.983 E45.23391
G1 X8.77 Y94.817 E45.2579
G1 X9.41 Y94.71 E45.27948
G1 X10.403 Y94.614 E45.31266
G1 X10.811 Y94.6 E45.32624
G1 X209.143 Y94.6 E51.92279
G1 X209.961 Y94.641 E51.95003
G1 X210.384 Y94.685 E51.96418
G1 X211.505 Y94.874 E52.00199
G1 X211.913 Y94.974 E52.01596
G1 X212.928 Y95.297 E52.05139
G1 X213.501 Y95.525 E52.0719
G1 X214.374 Y95.946 E52.10413
G1 X214.855 Y96.219 E52.12253
G1 X215.683 Y96.77 E52.15561
G1 X216.316 Y97.251 E52.18205
G1 X216.666 Y97.556 E52.19749
G1 X217.462 Y98.353 E52.23496
G1 X217.74 Y98.672 E52.24903
G1 X218.384 Y99.527 E52.28463
G1 X218.714 Y100.034 E52.30475
G1 X219.166 Y100.846 E52.33566
G1 X219.49 Y101.536 E52.36102
G1 X219.757 Y102.222 E52.3855
G1 X220 Y103.018 E52.41318
G1 F1500 E45.91318
G0 F6000 X220 Y125.975
G1 F1500 E52.41318
G1 F1200 X219.691 Y126.262 E52.42721
G1 X217.71 Y127.443 E52.50392
G1 X215.978 Y127.725 E52.56228
G1 X4.147 Y127.8 E59.60781
G1 X2.251 Y127.334 E59.67275
G1 X0.223 Y126.281 E59.74875
G1 X0.00 Y126.042 E59.75962
G0 F6000 X0.00 Y125.457
G1 F1200 X0.468 Y125.958 E59.78242
G1 X2.394 Y126.958 E59.8546
G1 X4.193 Y127.4 E59.91622
G1 X215.914 Y127.33 E66.95809
G1 X217.57 Y127.06 E67.01389
G1 X219.452 Y125.938 E67.08677
G1 X220 Y125.429 E67.11165
G0 F6000 X220 Y124.883
G1 F1200 X219.213 Y125.614 E67.14737
G1 X217.43 Y126.677 E67.21641
G1 X215.85 Y126.935 E67.26966
G1 X4.24 Y127 E74.30784
G1 X2.536 Y126.581 E74.3662
G1 X0.713 Y125.635 E74.43451
G1 X0.00 Y124.872 E74.46924
G0 F6000 X0.00 Y124.286
G1 F1200 X0.958 Y125.312 E74.51593
G1 X2.679 Y126.205 E74.58042
G1 X4.286 Y126.6 E74.63546
G1 X215.785 Y126.54 E81.66995
G1 X217.29 Y126.294 E81.72067
G1 X218.974 Y125.29 E81.78588
G1 X220 Y124.338 E81.83243
G0 F6000 X220 Y123.786
G1 F1200 X218.735 Y124.966 E81.88997
G1 X217.15 Y125.911 E81.95134
G1 X215.72 Y126.145 E81.99954
G1 X4.332 Y126.2 E89.03033
G1 X2.822 Y125.829 E89.08205
G1 X1.203 Y124.989 E89.14271
G1 X0.051 Y123.755 E89.19886
G1 X0.00 Y123.67 E89.20216
G0 F6000 X0.00 Y122.89
G1 F1200 X0.372 Y123.513 E89.22629
G1 X1.448 Y124.666 E89.27874
G1 X2.964 Y125.452 E89.33554
G1 X4.379 Y125.8 E89.38401
G1 X215.655 Y125.75 E96.41107
G1 X217.01 Y125.528 E96.45674
G1 X218.496 Y124.642 E96.51429
G1 X219.671 Y123.552 E96.56759
G1 X220 Y122.918 E96.59135
G0 F6000 X220 Y122.05
G1 F1200 X219.348 Y123.306 E96.63842
G1 X218.257 Y124.318 E96.68791
G1 X216.87 Y125.145 E96.74162
G1 X215.59 Y125.355 E96.78476
G1 X4.425 Y125.4 E103.80814
G1 X3.107 Y125.076 E103.85328
G1 X1.693 Y124.343 E103.90626
G1 X0.693 Y123.271 E103.95502
G1 X0.00 Y122.11 E103.99999
G1 F1500 E97.49999
G0 F6000 X215.653 Y120.653
G0 X220 Y120.541
G1 F1500 E103.99999
G1 F1200 X219.71 Y121.74 E104.04101
G1 X219.025 Y123.06 E104.09048
G1 X218.018 Y123.994 E104.13616
G1 X216.73 Y124.762 E104.18604
G1 X215.525 Y124.96 E104.22665
G1 X4.471 Y125 E111.24634
G1 X3.25 Y124.7 E111.28815
G1 X1.94 Y124.021 E111.33723
G1 X1.012 Y123.026 E111.38248
G1 X0.238 Y121.729 E111.43272
G1 X0.04 Y120.524 E111.47334
G1 X0.00 Y105.86 E111.96106
G1 X0.039 Y105.08 E111.98704
G1 X0.083 Y104.657 E112.00118
G1 X0.263 Y103.59 E112.03717
G1 X0.363 Y103.182 E112.05115
G1 X0.661 Y102.246 E112.08382
G1 X0.91 Y101.622 E112.10616
G1 X1.315 Y100.782 E112.13718
G1 X1.571 Y100.332 E112.1544
G1 X2.11 Y99.515 E112.18695
G1 X2.366 Y99.177 E112.20106
G1 X2.977 Y98.477 E112.23196
G1 X3.559 Y97.897 E112.25929
G1 X4.103 Y97.426 E112.28322
G1 X4.54 Y97.095 E112.30145
G1 X5.444 Y96.502 E112.33741
G1 X5.886 Y96.256 E112.35424
G1 X6.557 Y95.938 E112.37893
G1 X7.426 Y95.598 E112.40997
G1 X8.185 Y95.366 E112.43637
G1 X8.836 Y95.212 E112.45862
G1 X9.476 Y95.105 E112.4802
G1 X10.417 Y95.014 E112.51164
G1 X10.825 Y95 E112.52522
G1 X209.143 Y95 E119.12131
G1 X209.92 Y95.039 E119.14718
G1 X210.343 Y95.083 E119.16133
G1 X211.41 Y95.263 E119.19732
G1 X211.818 Y95.363 E119.21129
G1 X212.78 Y95.669 E119.24486
G1 X213.353 Y95.897 E119.26538
G1 X214.177 Y96.294 E119.2958
G1 X214.633 Y96.552 E119.31322
G1 X215.461 Y97.103 E119.3463
G1 X216.053 Y97.553 E119.37104
G1 X216.403 Y97.858 E119.38648
G1 X217.16 Y98.616 E119.42211
G1 X217.438 Y98.935 E119.43618
G1 X218.049 Y99.746 E119.46995
G1 X218.364 Y100.229 E119.48913
G1 X218.816 Y101.041 E119.52004
G1 X219.117 Y101.682 E119.54359
G1 X219.374 Y102.339 E119.56706
G1 X219.632 Y103.184 E119.59644
G1 X219.793 Y103.864 E119.61969
G1 X219.895 Y104.475 E119.64029
G1 X219.986 Y105.445 E119.67269
G1 X220 Y106 E119.69116
G0 F6000 X219.6 Y106
G1 F1200 X219.601 Y120.488 E120.17303
G1 X219.332 Y121.6 E120.21108
G1 X218.702 Y122.814 E120.25658
G1 X217.779 Y123.67 E120.29844
G1 X216.59 Y124.379 E120.34449
G1 X215.46 Y124.565 E120.38258
G1 X4.517 Y124.6 E127.39857
G1 X3.393 Y124.324 E127.43707
G1 X2.187 Y123.699 E127.48224
G1 X1.334 Y122.784 E127.52385
G1 X0.621 Y121.589 E127.57013
G1 X0.435 Y120.459 E127.60822
G1 X0.4 Y105.859 E128.09382
G1 X0.437 Y105.121 E128.1184
G1 X0.481 Y104.698 E128.13254
G1 X0.652 Y103.685 E128.16671
G1 X0.752 Y103.277 E128.18068
G1 X1.033 Y102.394 E128.2115
G1 X1.282 Y101.77 E128.23385
G1 X1.663 Y100.98 E128.26302
G1 X1.919 Y100.53 E128.28024
G1 X2.429 Y99.757 E128.31104
G1 X2.685 Y99.419 E128.32515
G1 X3.278 Y98.74 E128.35513
G1 X3.821 Y98.199 E128.38062
G1 X4.345 Y97.745 E128.40368
G1 X4.782 Y97.414 E128.42192
G1 X5.639 Y96.852 E128.456
G1 X6.081 Y96.606 E128.47283
G1 X6.728 Y96.3 E128.49663
G1 X7.543 Y95.981 E128.52574
G1 X8.302 Y95.749 E128.55214
G1 X8.902 Y95.607 E128.57265
G1 X9.542 Y95.5 E128.59423
G1 X10.431 Y95.414 E128.62393
G1 X10.839 Y95.4 E128.63751
G1 X209.143 Y95.4 E135.23313
G1 X209.879 Y95.437 E135.25764
G1 X210.302 Y95.481 E135.27179
G1 X211.315 Y95.652 E135.30595
G1 X211.723 Y95.752 E135.31993
G1 X212.632 Y96.041 E135.35165
G1 X213.205 Y96.269 E135.37216
G1 X213.981 Y96.643 E135.40081
G1 X214.411 Y96.885 E135.41722
G1 X215.239 Y97.436 E135.4503
G1 X215.79 Y97.855 E135.47333
G1 X216.14 Y98.16 E135.48877
G1 X216.858 Y98.879 E135.52256
G1 X217.136 Y99.198 E135.53664
G1 X217.714 Y99.965 E135.56858
G1 X218.029 Y100.448 E135.58776
G1 X218.454 Y101.211 E135.61681
G1 X218.744 Y101.828 E135.63948
G1 X219.001 Y102.485 E135.66295
G1 X219.243 Y103.276 E135.69046
G1 X219.398 Y103.93 E135.71282
G1 X219.5 Y104.541 E135.73342
G1 X219.586 Y105.455 E135.76395
G1 X219.6 Y106 E135.78209
G0 F6000 X219.2 Y106
G1 F1200 X219.201 Y120.439 E136.26233
G1 X218.954 Y121.46 E136.29727
G1 X218.379 Y122.568 E136.33879
G1 X217.54 Y123.346 E136.37684
G1 X216.45 Y123.996 E136.41905
G1 X215.395 Y124.17 E136.45462
G1 X4.564 Y124.2 E143.46688
G1 X3.535 Y123.947 E143.50213
G1 X2.434 Y123.377 E143.54336
G1 X1.656 Y122.542 E143.58132
G1 X1.004 Y121.449 E143.62365
G1 X0.83 Y120.394 E143.65922
G1 X0.8 Y105.858 E144.14269
G1 X0.835 Y105.162 E144.16587
G1 X0.879 Y104.739 E144.18001
G1 X1.041 Y103.78 E144.21236
G1 X1.141 Y103.372 E144.22633
G1 X1.414 Y102.515 E144.25625
G1 X1.642 Y101.944 E144.2767
G1 X2.011 Y101.178 E144.30497
G1 X2.267 Y100.728 E144.32219
G1 X2.748 Y99.999 E144.35124
G1 X3.004 Y99.661 E144.36535
G1 X3.579 Y99.003 E144.39441
G1 X4.083 Y98.501 E144.41807
G1 X4.587 Y98.064 E144.44026
G1 X5.024 Y97.733 E144.45849
G1 X5.834 Y97.202 E144.4907
G1 X6.276 Y96.956 E144.50753
G1 X6.899 Y96.662 E144.53044
G1 X7.688 Y96.354 E144.55861
G1 X8.394 Y96.138 E144.58317
G1 X8.968 Y96.002 E144.60279
G1 X9.608 Y95.895 E144.62437
G1 X10.445 Y95.814 E144.65234
G1 X10.853 Y95.8 E144.66592
G1 X209.143 Y95.8 E151.26107
G1 X209.838 Y95.835 E151.28421
G1 X210.261 Y95.879 E151.29836
G1 X211.22 Y96.041 E151.33071
G1 X211.628 Y96.141 E151.34468
G1 X212.511 Y96.422 E151.3755
G1 X213.032 Y96.63 E151.39416
G1 X213.785 Y96.992 E151.42194
G1 X214.215 Y97.234 E151.43836
G1 X214.997 Y97.754 E151.46959
G1 X215.527 Y98.157 E151.49174
G1 X215.877 Y98.462 E151.50718
G1 X216.556 Y99.142 E151.53914
G1 X216.834 Y99.461 E151.55321
G1 X217.379 Y100.184 E151.58333
G1 X217.694 Y100.667 E151.60251
G1 X218.092 Y101.381 E151.62969
G1 X218.371 Y101.974 E151.65149
G1 X218.628 Y102.631 E151.67495
G1 X218.854 Y103.368 E151.70059
G1 X219.003 Y103.996 E151.72206
G1 X219.105 Y104.607 E151.74266
G1 X219.186 Y105.465 E151.77133
G1 X219.2 Y106 E151.78913
G0 F6000 X218.8 Y106
G1 F1200 X218.801 Y120.39 E152.26774
G1 X218.576 Y121.32 E152.29957
G1 X218.056 Y122.322 E152.33711
G1 X217.301 Y123.022 E152.37136
G1 X216.31 Y123.613 E152.40973
G1 X215.33 Y123.775 E152.44277
G1 X4.61 Y123.8 E159.45135
G1 X3.678 Y123.571 E159.48327
G1 X2.681 Y123.055 E159.52061
G1 X1.978 Y122.3 E159.55492
G1 X1.387 Y121.309 E159.59329
G1 X1.225 Y120.329 E159.62633
G1 X1.2 Y105.857 E160.10767
G1 X1.233 Y105.203 E160.12945
G1 X1.277 Y104.78 E160.1436
G1 X1.43 Y103.875 E160.17413
G1 X1.53 Y103.467 E160.1881
G1 X1.795 Y102.637 E160.21708
G1 X2.003 Y102.117 E160.2357
G1 X2.359 Y101.376 E160.26305
G1 X2.615 Y100.926 E160.28027
G1 X3.067 Y100.241 E160.30756
G1 X3.323 Y99.903 E160.32166
G1 X3.88 Y99.266 E160.34981
