;FLAVOR:Marlin
;TIME:4074
;Filament used: 2.40088m
;Layer height: 0.2
;MINX:83.53
;MINY:81.3
;MINZ:0.2
;MAXX:136.35
;MAXY:138.7
;MAXZ:12.6
;TARGET_MACHINE.NAME:Creality Ender-3 Pro
;Generated with Cura_SteamEngine 5.9.0
M82 ;absolute extrusion mode
; Ender 3 Custom Start G-code
G92 E0 ; Reset Extruder
G28 ; Home all axes
G1 Z5.0 F3000 ; Move Z Axis up a bit during heating to not damage bed
M104 S175 ; Start heating up the nozzle most of the way
M190 S60 ; Start heating the bed, wait until target temperature reached
M109 S225.0 ; Finish heating the nozzle
G1 Z2.0 F3000 ; Move Z Axis up little to prevent scratching of Heat Bed
G1 X0.1 Y20 Z0.3 F5000.0 ; Move to start position
G1 X0.1 Y200.0 Z0.3 F1500.0 E15 ; Draw the first line
G1 X0.4 Y200.0 Z0.3 F5000.0 ; Move to side a little
G1 X0.4 Y20 Z0.3 F1500.0 E30 ; Draw the second line
G92 E0 ; Reset Extruder
G1 Z2.0 F3000 ; Move Z Axis up little to prevent scratching of Heat Bed
G1 X5 Y20 Z0.3 F5000.0 ; Move over to prevent blob squish
G92 E0
G92 E0
G1 F1500 E-6.5
;LAYER_COUNT:63
;LAYER:0
M107
G0 F6000 X121.919 Y138.7 Z0.2
;TYPE:SKIRT
G1 F1500 E0
G1 F1200 X97.924 Y138.7 E0.79808
G1 X96.208 Y138.206 E0.85747
G1 X94.805 Y137.627 E0.90795
G1 X91.753 Y135.13 E1.03911
G1 X90.601 Y133.222 E1.11324
G1 X89.983 Y131.985 E1.15923
G1 X89.48 Y129.879 E1.23124
G1 X89.685 Y127.364 E1.31517
G1 X90.394 Y125.643 E1.37708
G1 X90.393 Y121.715 E1.50772
G1 X88.244 Y120.946 E1.58364
G1 X86.742 Y119.662 E1.64936
G1 X85.518 Y118.347 E1.70911
G1 X85.323 Y117.938 E1.72418
G1 X84.363 Y116.611 E1.77866
G1 X83.669 Y114.323 E1.85818
G1 X83.633 Y112.166 E1.92993
G1 X83.588 Y111.542 E1.95074
G1 X83.55 Y111.203 E1.96209
G1 X83.53 Y109.097 E2.03214
G1 X83.616 Y108.006 E2.06854
G1 X83.647 Y107.157 E2.09679
G1 X83.654 Y105.975 E2.13611
G1 X84.11 Y104.222 E2.19635
G1 X84.587 Y103.003 E2.23989
G1 X85.462 Y101.88 E2.28724
G1 X85.769 Y101.297 E2.30915
G1 X85.934 Y101.082 E2.31817
G1 X87.862 Y99.503 E2.40106
G1 X89.941 Y98.533 E2.47736
G1 X90.392 Y98.486 E2.49244
G1 X90.394 Y94.366 E2.62947
G1 X89.819 Y92.759 E2.68624
G1 X89.456 Y91.111 E2.74237
G1 X89.788 Y88.734 E2.82219
G1 X90.054 Y87.751 E2.85606
G1 X90.531 Y86.925 E2.88779
G1 X90.615 Y86.746 E2.89437
G1 X91.383 Y85.384 E2.94637
G1 X91.859 Y84.772 E2.97216
G1 X94.654 Y82.555 E3.09081
G1 X95.808 Y81.868 E3.13548
G1 X97.981 Y81.3 E3.21019
G1 X121.976 Y81.3 E4.00826
G1 X123.692 Y81.794 E4.06765
G1 X125.095 Y82.373 E4.11814
G1 X128.147 Y84.87 E4.24929
G1 X129.299 Y86.778 E4.32342
G1 X129.917 Y88.015 E4.36941
G1 X130.42 Y90.121 E4.44143
G1 X130.215 Y92.636 E4.52536
G1 X129.506 Y94.357 E4.58726
G1 X129.507 Y98.285 E4.71791
G1 X131.658 Y99.055 E4.7939
G1 X133.201 Y100.381 E4.86157
G1 X134.334 Y101.607 E4.91709
G1 X134.559 Y102.042 E4.93338
G1 X135.481 Y103.287 E4.98491
G1 X136.23 Y105.653 E5.06745
G1 X136.273 Y107.912 E5.1426
G1 X136.307 Y108.455 E5.16069
G1 X136.35 Y108.871 E5.1746
G1 X136.35 Y111.152 E5.25047
G1 X136.302 Y111.599 E5.26542
G1 X136.25 Y112.562 E5.2975
G1 X136.249 Y114.068 E5.34759
G1 X135.751 Y115.958 E5.41259
G1 X135.377 Y116.897 E5.44621
G1 X134.431 Y118.142 E5.49822
G1 X134.065 Y118.834 E5.52425
G1 X131.898 Y120.621 E5.61768
G1 X129.861 Y121.461 E5.69096
G1 X129.506 Y121.515 E5.7029
G1 X129.506 Y125.634 E5.8399
G1 X130.081 Y127.241 E5.89667
G1 X130.444 Y128.888 E5.95276
G1 X130.112 Y131.274 E6.03289
G1 X129.847 Y132.242 E6.06627
G1 X129.349 Y133.112 E6.09961
G1 X129.206 Y133.405 E6.11045
G1 X128.561 Y134.551 E6.15419
G1 X128.046 Y135.223 E6.18235
G1 X125.246 Y137.445 E6.30124
G1 X124.092 Y138.132 E6.34591
G1 X121.919 Y138.7 E6.42061
G0 F6000 X121.868 Y138.3
G1 F1200 X97.978 Y138.3 E7.2152
G1 X96.361 Y137.836 E7.27115
G1 X95.012 Y137.279 E7.31969
G1 X92.059 Y134.863 E7.44659
G1 X90.959 Y133.043 E7.51732
G1 X90.361 Y131.846 E7.56183
G1 X89.884 Y129.849 E7.63012
G1 X90.079 Y127.458 E7.7099
G1 X90.794 Y125.722 E7.77235
G1 X90.793 Y121.372 E7.91703
G1 X90.531 Y121.339 E7.92581
G1 X88.447 Y120.593 E7.99944
G1 X87.035 Y119.389 E8.06115
G1 X85.852 Y118.118 E8.11891
G1 X85.669 Y117.734 E8.13305
G1 X84.727 Y116.432 E8.1865
G1 X84.068 Y114.26 E8.262
G1 X84.033 Y112.148 E8.33225
G1 X83.986 Y111.497 E8.35396
G1 X83.948 Y111.158 E8.36531
G1 X83.929 Y109.128 E8.43283
G1 X84.015 Y108.037 E8.46923
G1 X84.047 Y107.172 E8.49802
G1 X84.054 Y106.026 E8.53613
G1 X84.483 Y104.368 E8.59309
G1 X84.94 Y103.2 E8.63481
G1 X85.8 Y102.097 E8.68133
G1 X86.123 Y101.483 E8.7044
G1 X86.224 Y101.36 E8.7097
G1 X88.073 Y99.846 E8.78918
G1 X90.05 Y98.924 E8.86174
G1 X90.792 Y98.846 E8.88655
G1 X90.794 Y94.298 E9.03782
G1 X90.21 Y92.673 E9.09525
G1 X89.862 Y91.094 E9.14903
G1 X90.174 Y88.839 E9.22474
G1 X90.426 Y87.908 E9.25682
G1 X90.885 Y87.112 E9.28739
G1 X90.977 Y86.917 E9.29456
G1 X91.699 Y85.63 E9.34364
G1 X92.147 Y85.054 E9.36791
G1 X94.859 Y82.899 E9.48312
G1 X95.966 Y82.24 E9.52597
G1 X98.032 Y81.7 E9.59699
G1 X121.922 Y81.7 E10.39158
G1 X123.539 Y82.164 E10.44753
G1 X124.888 Y82.721 E10.49607
G1 X127.841 Y85.137 E10.62297
G1 X128.941 Y86.957 E10.6937
G1 X129.539 Y88.154 E10.73821
G1 X130.016 Y90.151 E10.8065
G1 X129.821 Y92.542 E10.88629
G1 X129.106 Y94.278 E10.94873
G1 X129.107 Y98.628 E11.09341
G1 X129.369 Y98.661 E11.1022
G1 X131.454 Y99.407 E11.17585
G1 X132.907 Y100.652 E11.23949
G1 X134.004 Y101.839 E11.29325
G1 X134.218 Y102.253 E11.30875
G1 X135.12 Y103.471 E11.35916
G1 X135.831 Y105.717 E11.43751
G1 X135.873 Y107.921 E11.51083
G1 X135.909 Y108.496 E11.52999
G1 X135.952 Y108.912 E11.5439
G1 X135.952 Y111.109 E11.61698
G1 X135.904 Y111.556 E11.63193
G1 X135.85 Y112.562 E11.66544
G1 X135.849 Y114.016 E11.7138
G1 X135.379 Y115.81 E11.77548
G1 X135.024 Y116.701 E11.80738
G1 X134.09 Y117.93 E11.85872
G1 X133.749 Y118.575 E11.88299
G1 X131.689 Y120.274 E11.9718
G1 X129.708 Y121.091 E12.04307
G1 X129.106 Y121.155 E12.06321
G1 X129.106 Y125.702 E12.21444
G1 X129.69 Y127.327 E12.27187
G1 X130.038 Y128.906 E12.32565
G1 X129.726 Y131.169 E12.40163
G1 X129.475 Y132.087 E12.43328
G1 X129.002 Y132.913 E12.46494
G1 X128.857 Y133.21 E12.47594
G1 X128.243 Y134.308 E12.51778
G1 X127.758 Y134.941 E12.5443
G1 X125.041 Y137.101 E12.65975
G1 X123.934 Y137.76 E12.7026
G1 X121.868 Y138.3 E12.77362
G0 F6000 X121.817 Y137.9
G1 F1200 X98.036 Y137.9 E13.56458
G1 X96.514 Y137.466 E13.61722
G1 X95.219 Y136.931 E13.66382
G1 X92.365 Y134.596 E13.78647
G1 X91.317 Y132.864 E13.8538
G1 X90.739 Y131.707 E13.89681
G1 X90.288 Y129.819 E13.96138
G1 X90.473 Y127.552 E14.03703
G1 X91.194 Y125.801 E14.10001
G1 X91.193 Y120.999 E14.25973
G1 X90.666 Y120.962 E14.2773
G1 X88.65 Y120.24 E14.34852
G1 X87.328 Y119.116 E14.40623
G1 X86.186 Y117.889 E14.46199
G1 X86.015 Y117.53 E14.47521
G1 X85.091 Y116.253 E14.52764
G1 X84.467 Y114.197 E14.5991
G1 X84.433 Y112.13 E14.66786
G1 X84.384 Y111.452 E14.69047
G1 X84.346 Y111.113 E14.70181
G1 X84.328 Y109.159 E14.76681
G1 X84.414 Y108.068 E14.80321
G1 X84.447 Y107.187 E14.83253
G1 X84.454 Y106.077 E14.86945
G1 X84.856 Y104.514 E14.92312
G1 X85.293 Y103.397 E14.96302
G1 X86.138 Y102.314 E15.00871
G1 X86.477 Y101.669 E15.03294
G1 X88.284 Y100.189 E15.11063
G1 X90.159 Y99.315 E15.17943
G1 X91.192 Y99.206 E15.21398
G1 X91.194 Y94.184 E15.38101
G1 X91.126 Y94.04 E15.38631
G1 X90.601 Y92.587 E15.4377
G1 X90.268 Y91.076 E15.48916
G1 X90.56 Y88.944 E15.56073
G1 X90.799 Y88.061 E15.59116
G1 X91.241 Y87.295 E15.62057
G1 X91.327 Y87.112 E15.6273
G1 X92.015 Y85.876 E15.67434
G1 X92.435 Y85.336 E15.6971
G1 X95.064 Y83.243 E15.80887
G1 X96.124 Y82.612 E15.8499
G1 X98.083 Y82.1 E15.91724
G1 X121.864 Y82.1 E16.7082
G1 X123.386 Y82.534 E16.76084
G1 X124.681 Y83.069 E16.80744
G1 X127.535 Y85.404 E16.93009
G1 X128.583 Y87.136 E16.99742
G1 X129.161 Y88.293 E17.04044
G1 X129.612 Y90.181 E17.105
G1 X129.427 Y92.448 E17.18065
G1 X128.706 Y94.199 E17.24363
G1 X128.707 Y99.001 E17.40335
G1 X129.234 Y99.038 E17.42092
G1 X131.251 Y99.76 E17.49217
G1 X132.613 Y100.923 E17.55174
G1 X133.674 Y102.071 E17.60373
G1 X133.877 Y102.464 E17.61845
G1 X134.759 Y103.655 E17.66774
G1 X135.432 Y105.781 E17.74191
G1 X135.473 Y107.93 E17.8134
G1 X135.511 Y108.537 E17.83362
G1 X135.554 Y108.953 E17.84753
G1 X135.554 Y111.066 E17.91781
G1 X135.506 Y111.513 E17.93277
G1 X135.45 Y112.562 E17.96771
G1 X135.449 Y113.964 E18.01434
G1 X135.007 Y115.662 E18.07269
G1 X134.671 Y116.505 E18.10288
G1 X133.749 Y117.718 E18.15355
G1 X133.432 Y118.318 E18.17612
G1 X131.481 Y119.927 E18.26024
G1 X129.609 Y120.699 E18.32758
G1 X128.706 Y120.795 E18.35779
G1 X128.706 Y125.816 E18.52479
G1 X128.774 Y125.96 E18.53008
G1 X129.299 Y127.413 E18.58147
G1 X129.632 Y128.924 E18.63293
G1 X129.34 Y131.063 E18.70473
G1 X129.102 Y131.933 E18.73473
G1 X128.646 Y132.73 E18.76527
G1 X128.507 Y133.016 E18.77585
G1 X127.925 Y134.065 E18.81575
G1 X127.47 Y134.659 E18.84064
G1 X124.836 Y136.757 E18.95264
G1 X123.776 Y137.388 E18.99367
G1 X121.817 Y137.9 E19.06101
G0 F6000 X121.766 Y137.5
G1 F1200 X98.092 Y137.5 E19.84841
G1 X96.667 Y137.096 E19.89768
G1 X95.426 Y136.583 E19.94234
G1 X92.671 Y134.329 E20.06073
G1 X91.675 Y132.685 E20.12466
G1 X91.117 Y131.568 E20.16619
G1 X90.692 Y129.789 E20.22703
G1 X90.867 Y127.646 E20.29854
G1 X91.594 Y125.88 E20.36206
G1 X91.593 Y120.627 E20.53678
G1 X90.751 Y120.567 E20.56485
G1 X88.853 Y119.887 E20.63191
G1 X87.621 Y118.843 E20.68562
G1 X86.52 Y117.66 E20.73937
G1 X86.36 Y117.323 E20.75178
G1 X85.454 Y116.072 E20.80315
G1 X84.866 Y114.134 E20.87051
G1 X84.833 Y112.123 E20.93741
G1 X84.782 Y111.407 E20.96128
G1 X84.744 Y111.068 E20.97263
G1 X84.727 Y109.19 E21.03509
G1 X84.813 Y108.099 E21.07149
G1 X84.847 Y107.202 E21.10135
G1 X84.854 Y106.131 E21.13697
G1 X85.229 Y104.66 E21.18746
G1 X85.646 Y103.594 E21.22553
G1 X86.476 Y102.531 E21.27039
G1 X86.793 Y101.927 E21.29308
G1 X88.501 Y100.529 E21.36649
G1 X90.265 Y99.706 E21.43123
G1 X91.592 Y99.566 E21.47561
G1 X91.594 Y94.09 E21.65774
G1 X91.502 Y93.903 E21.66468
G1 X90.992 Y92.501 E21.7143
G1 X90.674 Y91.058 E21.76344
G1 X90.946 Y89.049 E21.83087
G1 X91.171 Y88.218 E21.85951
G1 X91.596 Y87.481 E21.8878
G1 X91.677 Y87.307 E21.89419
G1 X92.365 Y86.071 E21.94123
G1 X92.722 Y85.619 E21.96039
G1 X95.269 Y83.587 E22.06876
G1 X96.282 Y82.984 E22.10797
G1 X98.134 Y82.5 E22.17164
G1 X121.808 Y82.5 E22.95904
G1 X123.233 Y82.904 E23.0083
G1 X124.474 Y83.417 E23.05297
G1 X127.229 Y85.671 E23.17136
G1 X128.225 Y87.315 E23.23529
G1 X128.783 Y88.432 E23.27682
G1 X129.208 Y90.211 E23.33765
G1 X129.033 Y92.354 E23.40917
G1 X128.306 Y94.12 E23.47269
G1 X128.307 Y99.373 E23.6474
G1 X129.149 Y99.433 E23.67548
G1 X131.048 Y100.113 E23.74257
G1 X132.319 Y101.195 E23.79808
G1 X133.345 Y102.305 E23.84836
G1 X133.542 Y102.686 E23.86262
G1 X133.615 Y102.774 E23.86643
G1 X134.398 Y103.839 E23.91039
G1 X135.033 Y105.845 E23.98037
G1 X135.073 Y107.939 E24.05003
G1 X135.113 Y108.578 E24.07133
G1 X135.156 Y108.994 E24.08524
G1 X135.156 Y111.023 E24.15272
G1 X135.108 Y111.47 E24.16768
G1 X135.05 Y112.562 E24.20405
G1 X135.049 Y113.913 E24.24898
G1 X134.62 Y115.561 E24.30562
G1 X134.32 Y116.306 E24.33233
G1 X133.475 Y117.424 E24.37895
G1 X133.419 Y117.485 E24.3817
G1 X133.115 Y118.061 E24.40336
G1 X131.273 Y119.58 E24.48277
G1 X129.51 Y120.307 E24.5462
G1 X128.306 Y120.435 E24.58647
G1 X128.306 Y125.91 E24.76857
G1 X128.398 Y126.097 E24.7755
G1 X128.908 Y127.499 E24.82512
G1 X129.226 Y128.942 E24.87427
G1 X128.954 Y130.957 E24.94189
G1 X128.729 Y131.779 E24.97024
G1 X128.293 Y132.541 E24.99944
G1 X128.157 Y132.822 E25.00982
G1 X127.575 Y133.871 E25.04972
G1 X127.183 Y134.377 E25.07101
G1 X124.631 Y136.413 E25.17959
G1 X123.618 Y137.016 E25.2188
G1 X121.766 Y137.5 E25.28247
G0 F6000 X121.715 Y137.1
G1 F1200 X98.148 Y137.1 E26.06631
G1 X96.776 Y136.711 E26.11374
G1 X95.634 Y136.236 E26.15488
G1 X92.978 Y134.063 E26.26902
G1 X92.033 Y132.506 E26.3296
G1 X91.495 Y131.429 E26.36964
G1 X91.096 Y129.759 E26.42675
G1 X91.261 Y127.74 E26.49412
G1 X91.994 Y125.959 E26.55818
G1 X91.993 Y120.255 E26.7479
G1 X90.836 Y120.172 E26.78648
G1 X89.054 Y119.534 E26.84943
G1 X87.914 Y118.57 E26.89909
G1 X86.853 Y117.43 E26.95088
G1 X86.699 Y117.105 E26.96285
G1 X86.641 Y117.036 E26.96584
G1 X85.817 Y115.891 E27.01276
G1 X85.265 Y114.071 E27.07602
G1 X85.233 Y112.116 E27.14105
G1 X85.18 Y111.362 E27.16619
G1 X85.142 Y111.023 E27.17754
G1 X85.126 Y109.221 E27.23747
G1 X85.212 Y108.13 E27.27387
G1 X85.247 Y107.217 E27.30426
G1 X85.254 Y106.184 E27.33862
G1 X85.617 Y104.759 E27.38753
G1 X85.997 Y103.794 E27.42202
G1 X86.742 Y102.833 E27.46247
G1 X86.804 Y102.767 E27.46548
G1 X87.11 Y102.184 E27.48738
G1 X88.712 Y100.872 E27.55625
G1 X90.374 Y100.097 E27.61724
G1 X91.992 Y99.926 E27.67136
G1 X91.994 Y93.995 E27.86862
G1 X91.878 Y93.765 E27.87719
G1 X91.383 Y92.415 E27.92502
G1 X91.08 Y91.039 E27.97188
G1 X91.332 Y89.154 E28.03513
G1 X91.543 Y88.375 E28.06197
G1 X91.949 Y87.671 E28.089
G1 X92.04 Y87.475 E28.09619
G1 X92.714 Y86.266 E28.14223
G1 X93.007 Y85.903 E28.15775
G1 X95.474 Y83.931 E28.26279
G1 X96.44 Y83.356 E28.30018
G1 X98.185 Y82.9 E28.36017
G1 X121.752 Y82.9 E29.14401
G1 X123.124 Y83.289 E29.19144
G1 X124.266 Y83.764 E29.23258
G1 X126.922 Y85.937 E29.34672
G1 X127.867 Y87.494 E29.4073
G1 X128.405 Y88.571 E29.44734
G1 X128.804 Y90.241 E29.50444
G1 X128.639 Y92.26 E29.57182
G1 X127.906 Y94.041 E29.63588
G1 X127.907 Y99.745 E29.82559
G1 X129.064 Y99.828 E29.86417
G1 X130.845 Y100.466 E29.9271
G1 X132.025 Y101.467 E29.97856
G1 X133.016 Y102.539 E30.02712
G1 X133.207 Y102.908 E30.04094
G1 X133.293 Y103.011 E30.0454
G1 X134.037 Y104.023 E30.08718
G1 X134.634 Y105.909 E30.15297
G1 X134.673 Y107.948 E30.2208
G1 X134.715 Y108.619 E30.24317
G1 X134.758 Y109.035 E30.25708
G1 X134.758 Y110.98 E30.32177
G1 X134.71 Y111.427 E30.33672
G1 X134.65 Y112.562 E30.37452
G1 X134.649 Y113.863 E30.41779
G1 X134.249 Y115.412 E30.471
G1 X133.969 Y116.107 E30.49593
G1 X133.181 Y117.153 E30.53948
G1 X133.088 Y117.254 E30.54405
G1 X132.798 Y117.804 E30.56473
G1 X131.065 Y119.233 E30.63944
G1 X129.411 Y119.915 E30.69894
G1 X127.906 Y120.075 E30.74928
G1 X127.906 Y126.004 E30.94648
G1 X128.022 Y126.235 E30.95508
G1 X128.517 Y127.585 E31.0029
G1 X128.82 Y128.961 E31.04977
G1 X128.568 Y130.852 E31.11322
G1 X128.357 Y131.624 E31.13983
G1 X127.94 Y132.352 E31.16774
G1 X127.807 Y132.628 E31.17793
G1 X127.225 Y133.677 E31.21783
G1 X126.895 Y134.095 E31.23554
G1 X124.426 Y136.069 E31.34068
G1 X123.46 Y136.644 E31.37807
G1 X121.715 Y137.1 E31.43806
G0 F6000 X121.664 Y136.7
G1 F1200 X98.204 Y136.7 E32.21834
G1 X96.885 Y136.326 E32.26394
G1 X95.843 Y135.89 E32.30151
G1 X93.285 Y133.797 E32.41144
G1 X92.391 Y132.327 E32.46866
G1 X91.873 Y131.29 E32.50722
G1 X91.5 Y129.729 E32.5606
G1 X91.655 Y127.834 E32.62384
G1 X92.394 Y126.038 E32.68843
G1 X92.393 Y119.883 E32.89315
G1 X90.921 Y119.777 E32.94223
G1 X89.257 Y119.181 E33.00102
G1 X88.207 Y118.297 E33.04667
G1 X87.187 Y117.201 E33.09647
G1 X87.037 Y116.885 E33.10811
G1 X86.966 Y116.802 E33.11174
G1 X86.18 Y115.71 E33.15649
G1 X85.664 Y114.008 E33.21564
G1 X85.633 Y112.109 E33.27881
G1 X85.578 Y111.317 E33.30522
G1 X85.54 Y110.978 E33.31656
G1 X85.525 Y109.252 E33.37397
G1 X85.611 Y108.161 E33.41037
G1 X85.647 Y107.233 E33.44126
G1 X85.654 Y106.237 E33.47439
G1 X86.005 Y104.858 E33.52172
G1 X86.348 Y103.993 E33.55266
G1 X87.034 Y103.106 E33.58996
G1 X87.133 Y103 E33.59478
G1 X87.426 Y102.442 E33.61575
G1 X88.926 Y101.214 E33.68022
G1 X90.483 Y100.488 E33.73736
G1 X91.954 Y100.332 E33.78656
G1 X92.392 Y100.373 E33.80119
G1 X92.394 Y93.897 E34.01659
G1 X92.253 Y93.626 E34.02675
G1 X91.774 Y92.329 E34.07273
G1 X91.486 Y91.022 E34.11725
G1 X91.718 Y89.259 E34.17639
G1 X91.916 Y88.528 E34.20158
G1 X92.306 Y87.852 E34.22754
G1 X92.403 Y87.643 E34.2352
G1 X93.025 Y86.517 E34.27799
G1 X93.29 Y86.189 E34.29201
G1 X95.679 Y84.275 E34.39382
G1 X96.598 Y83.728 E34.4294
G1 X98.236 Y83.3 E34.4857
G1 X121.696 Y83.3 E35.26599
G1 X123.015 Y83.674 E35.31159
G1 X124.057 Y84.11 E35.34916
G1 X126.615 Y86.203 E35.45909
G1 X127.509 Y87.673 E35.51631
G1 X128.027 Y88.71 E35.55486
G1 X128.4 Y90.271 E35.60824
G1 X128.245 Y92.166 E35.67148
G1 X127.506 Y93.962 E35.73608
G1 X127.507 Y100.117 E35.94079
