;FLAVOR:Marlin
;TIME:4437
;Filament used: 2.71211m
;Layer height: 0.2
;MINX:86.4
;MINY:56.15
;MINZ:0.2
;MAXX:133.6
;MAXY:163.85
;MAXZ:8
;TARGET_MACHINE.NAME:Creality Ender-3 Pro
;Generated with Cura_SteamEngine 5.9.0
M82 ;absolute extrusion mode
; Ender 3 Custom Start G-code
G92 E0 ; Reset Extruder
G28 ; Home all axes
G1 Z5.0 F3000 ; Move Z Axis up a bit during heating to not damage bed
M104 S175 ; Start heating up the nozzle most of the way
M190 S60 ; Start heating the bed, wait until target temperature reached
M109 S225.0 ; Finish heating the nozzle
G1 Z2.0 F3000 ; Move Z Axis up little to prevent scratching of Heat Bed
G1 X0.1 Y20 Z0.3 F5000.0 ; Move to start position
G1 X0.1 Y200.0 Z0.3 F1500.0 E15 ; Draw the first line
G1 X0.4 Y200.0 Z0.3 F5000.0 ; Move to side a little
G1 X0.4 Y20 Z0.3 F1500.0 E30 ; Draw the second line
G92 E0 ; Reset Extruder
G1 Z2.0 F3000 ; Move Z Axis up little to prevent scratching of Heat Bed
G1 X5 Y20 Z0.3 F5000.0 ; Move over to prevent blob squish
G92 E0
G92 E0
G1 F1500 E-6.5
;LAYER_COUNT:40
;LAYER:0
M107
G0 F6000 X89.424 Y147.332 Z0.2
;TYPE:SKIRT
G1 F1500 E0
G1 F1200 X87.964 Y145.77 E0.07111
G1 X86.757 Y143.747 E0.14946
G1 X86.475 Y142.029 E0.20737
G1 X86.4 Y122.473 E0.85781
G1 X86.866 Y120.576 E0.92278
G1 X87.919 Y118.548 E0.99878
G1 X89.492 Y117.077 E1.07041
G1 X91.089 Y116.139 E1.13201
G1 X91.4 Y116.01 E1.14321
G1 X91.4 Y112.104 E1.27313
G1 X89.423 Y111.082 E1.34715
G1 X87.964 Y109.52 E1.41824
G1 X86.757 Y107.497 E1.49659
G1 X86.475 Y105.779 E1.5545
G1 X86.4 Y86.223 E2.20494
G1 X86.866 Y84.326 E2.26991
G1 X87.919 Y82.298 E2.34591
G1 X89.492 Y80.827 E2.41754
G1 X91.089 Y79.889 E2.47914
G1 X91.4 Y79.76 E2.49034
G1 X91.4 Y63.097 E3.04455
G1 X91.866 Y61.201 E3.10949
G1 X92.919 Y59.173 E3.18549
G1 X94.48 Y57.714 E3.25656
G1 X96.503 Y56.507 E3.33491
G1 X98.221 Y56.225 E3.39281
G1 X110.643 Y56.15 E3.80598
G1 X112.551 Y56.618 E3.87132
G1 X114.577 Y57.669 E3.94723
G1 X115.486 Y58.642 E3.99152
G1 X116.494 Y57.7 E4.03741
G1 X118.204 Y56.691 E4.10345
G1 X118.733 Y56.468 E4.12254
G1 X120.552 Y56.197 E4.18371
G1 X126.661 Y56.15 E4.3869
G1 X128.528 Y56.607 E4.45083
G1 X130.577 Y57.669 E4.52759
G1 X132.036 Y59.23 E4.59866
G1 X133.243 Y61.253 E4.67701
G1 X133.525 Y62.971 E4.73491
G1 X133.6 Y87.528 E5.55169
G1 X133.134 Y89.424 E5.61662
G1 X132.081 Y91.452 E5.69263
G1 X130.508 Y92.923 E5.76426
G1 X128.911 Y93.861 E5.82586
G1 X128.6 Y93.99 E5.83706
G1 X128.6 Y97.896 E5.96697
G1 X130.577 Y98.918 E6.04099
G1 X132.036 Y100.48 E6.11208
G1 X133.243 Y102.503 E6.19043
G1 X133.525 Y104.221 E6.24834
G1 X133.6 Y123.777 E6.89878
G1 X133.134 Y125.674 E6.96375
G1 X132.081 Y127.702 E7.03975
G1 X130.508 Y129.173 E7.11138
G1 X128.911 Y130.111 E7.17298
G1 X128.6 Y130.24 E7.18418
G1 X128.6 Y134.146 E7.31409
G1 X130.577 Y135.168 E7.38812
G1 X132.036 Y136.73 E7.45921
G1 X133.243 Y138.753 E7.53756
G1 X133.525 Y140.471 E7.59546
G1 X133.6 Y151.893 E7.97537
G1 X133.132 Y153.801 E8.04071
G1 X132.081 Y155.827 E8.11662
G1 X130.508 Y157.298 E8.18825
G1 X128.911 Y158.236 E8.24985
G1 X128.202 Y158.523 E8.27529
G1 X128.113 Y158.84 E8.28625
G1 X127.081 Y160.827 E8.36072
G1 X125.52 Y162.286 E8.43178
G1 X123.497 Y163.493 E8.51013
G1 X121.779 Y163.775 E8.56804
G1 X109.357 Y163.85 E8.9812
G1 X107.449 Y163.382 E9.04655
G1 X105.423 Y162.331 E9.12246
G1 X103.952 Y160.758 E9.19409
G1 X103.014 Y159.161 E9.25569
G1 X102.885 Y158.85 E9.26689
G1 X98.347 Y158.85 E9.41782
G1 X96.451 Y158.384 E9.48276
G1 X94.423 Y157.331 E9.55876
G1 X92.952 Y155.758 E9.63039
G1 X91.913 Y154.014 E9.69791
G1 X91.73 Y153.579 E9.71361
G1 X91.449 Y151.714 E9.77634
G1 X91.422 Y148.371 E9.88753
G1 X89.424 Y147.332 E9.96243
G0 F6000 X89.668 Y147.008
G1 F1200 X88.288 Y145.531 E10.02966
G1 X87.14 Y143.607 E10.10418
G1 X86.87 Y141.964 E10.15956
G1 X86.8 Y122.518 E10.80634
G1 X87.242 Y120.719 E10.86796
G1 X88.242 Y118.793 E10.94014
G1 X89.731 Y117.401 E11.00793
G1 X91.292 Y116.484 E11.06815
G1 X91.8 Y116.28 E11.08635
G1 X91.8 Y111.808 E11.23509
G1 X91.552 Y111.736 E11.24368
G1 X89.668 Y110.758 E11.31428
G1 X88.288 Y109.281 E11.38151
G1 X87.14 Y107.357 E11.45603
G1 X86.87 Y105.714 E11.51141
G1 X86.8 Y86.268 E12.15819
G1 X87.242 Y84.469 E12.21981
G1 X88.242 Y82.543 E12.29199
G1 X89.731 Y81.151 E12.35978
G1 X91.292 Y80.234 E12.42
G1 X91.8 Y80.03 E12.4382
G1 X91.8 Y63.143 E12.99987
G1 X92.242 Y61.344 E13.06148
G1 X93.242 Y59.418 E13.13366
G1 X94.719 Y58.038 E13.20089
G1 X96.643 Y56.89 E13.27541
G1 X98.286 Y56.62 E13.33079
G1 X110.598 Y56.55 E13.74029
G1 X112.408 Y56.994 E13.80228
G1 X114.332 Y57.992 E13.87437
G1 X115.467 Y59.207 E13.92967
G1 X116.734 Y58.023 E13.98735
G1 X118.359 Y57.06 E14.05017
G1 X118.841 Y56.857 E14.06757
G1 X120.611 Y56.593 E14.12709
G1 X126.613 Y56.55 E14.32672
G1 X128.389 Y56.985 E14.38754
G1 X130.332 Y57.992 E14.46033
G1 X131.712 Y59.469 E14.52756
G1 X132.86 Y61.393 E14.60207
G1 X133.13 Y63.036 E14.65745
G1 X133.2 Y87.482 E15.47053
G1 X132.758 Y89.281 E15.53215
G1 X131.758 Y91.207 E15.60433
G1 X130.269 Y92.599 E15.67212
G1 X128.708 Y93.516 E15.73234
G1 X128.2 Y93.72 E15.75055
G1 X128.2 Y98.192 E15.89928
G1 X128.448 Y98.264 E15.90787
G1 X130.332 Y99.242 E15.97848
G1 X131.712 Y100.719 E16.04571
G1 X132.86 Y102.643 E16.12022
G1 X133.13 Y104.286 E16.1756
G1 X133.2 Y123.732 E16.82238
G1 X132.758 Y125.531 E16.884
G1 X131.758 Y127.457 E16.95618
G1 X130.269 Y128.849 E17.02397
G1 X128.708 Y129.766 E17.08419
G1 X128.2 Y129.97 E17.1024
G1 X128.2 Y134.442 E17.25114
G1 X128.448 Y134.514 E17.25972
G1 X130.332 Y135.492 E17.33033
G1 X131.712 Y136.969 E17.39756
G1 X132.86 Y138.893 E17.47208
G1 X133.13 Y140.536 E17.52745
G1 X133.2 Y151.848 E17.9037
G1 X132.756 Y153.658 E17.96569
G1 X131.758 Y155.582 E18.03778
G1 X130.269 Y156.974 E18.10557
G1 X128.708 Y157.891 E18.16579
G1 X128.063 Y158.149 E18.18889
G1 X127.873 Y158.189 E18.19535
G1 X127.758 Y158.656 E18.21134
G1 X126.758 Y160.582 E18.28352
G1 X125.281 Y161.962 E18.35075
G1 X123.357 Y163.11 E18.42527
G1 X121.714 Y163.38 E18.48065
G1 X109.402 Y163.45 E18.89016
G1 X107.592 Y163.006 E18.95214
G1 X105.668 Y162.008 E19.02423
G1 X104.276 Y160.519 E19.09203
G1 X103.359 Y158.958 E19.15224
G1 X103.155 Y158.45 E19.17045
G1 X98.393 Y158.45 E19.32883
G1 X96.594 Y158.008 E19.39045
G1 X94.668 Y157.008 E19.46263
G1 X93.276 Y155.519 E19.53042
G1 X92.257 Y153.809 E19.59663
G1 X92.119 Y153.472 E19.60874
G1 X91.845 Y151.654 E19.66989
G1 X91.82 Y148.065 E19.78927
G1 X91.553 Y147.988 E19.79851
G1 X89.668 Y147.008 E19.86917
G0 F6000 X89.913 Y146.685
G1 F1200 X88.609 Y145.289 E19.93271
G1 X87.523 Y143.469 E20.0032
G1 X87.265 Y141.899 E20.05612
G1 X87.2 Y122.565 E20.69917
G1 X87.619 Y120.861 E20.75754
G1 X88.565 Y119.038 E20.82585
G1 X89.973 Y117.722 E20.88995
G1 X91.441 Y116.855 E20.94665
G1 X92.037 Y116.616 E20.96801
G1 X92.2 Y116.58 E20.97356
G1 X92.2 Y111.495 E21.14269
G1 X91.736 Y111.381 E21.15858
G1 X89.913 Y110.435 E21.22689
G1 X88.609 Y109.039 E21.29043
G1 X87.523 Y107.219 E21.36092
G1 X87.265 Y105.649 E21.41384
G1 X87.2 Y86.315 E22.05689
G1 X87.619 Y84.611 E22.11526
G1 X88.565 Y82.788 E22.18357
G1 X89.973 Y81.472 E22.24767
G1 X91.441 Y80.605 E22.30438
G1 X92.037 Y80.366 E22.32573
G1 X92.2 Y80.33 E22.33128
G1 X92.2 Y63.19 E22.90136
G1 X92.619 Y61.486 E22.95973
G1 X93.565 Y59.663 E23.02804
G1 X94.961 Y58.359 E23.09157
G1 X96.781 Y57.273 E23.16207
G1 X98.351 Y57.015 E23.21498
G1 X110.553 Y56.95 E23.62083
G1 X112.265 Y57.37 E23.67946
G1 X114.087 Y58.315 E23.74773
G1 X115.372 Y59.69 E23.81032
G1 X115.472 Y59.841 E23.81634
G1 X115.615 Y59.616 E23.82521
G1 X116.973 Y58.347 E23.88703
G1 X118.514 Y57.429 E23.94669
G1 X118.949 Y57.246 E23.96239
G1 X120.67 Y56.989 E24.02026
G1 X126.564 Y56.95 E24.2163
G1 X128.25 Y57.363 E24.27404
G1 X130.087 Y58.315 E24.34285
G1 X131.391 Y59.711 E24.40639
G1 X132.477 Y61.531 E24.47688
G1 X132.735 Y63.101 E24.5298
G1 X132.8 Y87.435 E25.33915
G1 X132.381 Y89.139 E25.39752
G1 X131.435 Y90.962 E25.46583
G1 X130.027 Y92.278 E25.52993
G1 X128.559 Y93.145 E25.58663
G1 X127.963 Y93.384 E25.60799
G1 X127.8 Y93.42 E25.61354
G1 X127.8 Y98.505 E25.78267
G1 X128.264 Y98.619 E25.79856
G1 X130.087 Y99.565 E25.86687
G1 X131.391 Y100.961 E25.93041
G1 X132.477 Y102.781 E26.0009
G1 X132.735 Y104.351 E26.05382
G1 X132.8 Y123.685 E26.69688
G1 X132.381 Y125.389 E26.75524
G1 X131.435 Y127.212 E26.82355
G1 X130.027 Y128.528 E26.88765
G1 X128.559 Y129.395 E26.94436
G1 X127.963 Y129.634 E26.96571
G1 X127.8 Y129.67 E26.97127
G1 X127.8 Y134.755 E27.14039
G1 X128.264 Y134.869 E27.15628
G1 X130.087 Y135.815 E27.2246
G1 X131.391 Y137.211 E27.28813
G1 X132.477 Y139.031 E27.35862
G1 X132.735 Y140.601 E27.41154
G1 X132.8 Y151.803 E27.78413
G1 X132.38 Y153.515 E27.84276
G1 X131.435 Y155.337 E27.91102
G1 X130.027 Y156.653 E27.97513
G1 X128.559 Y157.52 E28.03183
G1 X127.914 Y157.778 E28.05494
G1 X127.549 Y157.833 E28.06721
G1 X127.382 Y158.513 E28.0905
G1 X126.435 Y160.337 E28.15886
G1 X125.039 Y161.641 E28.22239
G1 X123.219 Y162.727 E28.29289
G1 X121.649 Y162.985 E28.3458
G1 X109.447 Y163.05 E28.75165
G1 X107.735 Y162.63 E28.81028
G1 X105.913 Y161.685 E28.87855
G1 X104.597 Y160.277 E28.94265
G1 X103.73 Y158.809 E28.99935
G1 X103.491 Y158.213 E29.02071
G1 X103.455 Y158.05 E29.02626
G1 X98.44 Y158.05 E29.19306
G1 X96.736 Y157.631 E29.25143
G1 X94.913 Y156.685 E29.31974
G1 X93.6 Y155.28 E29.3837
G1 X92.601 Y153.604 E29.44859
G1 X92.506 Y153.361 E29.45727
G1 X92.245 Y151.651 E29.5148
G1 X92.218 Y147.751 E29.64452
G1 X91.737 Y147.633 E29.66099
G1 X89.913 Y146.685 E29.72936
G0 F6000 X90.158 Y146.362
G1 F1200 X88.93 Y145.047 E29.78921
G1 X87.906 Y143.331 E29.85567
G1 X87.66 Y141.834 E29.90613
G1 X87.6 Y122.611 E30.54549
G1 X87.995 Y121.004 E30.60053
G1 X88.888 Y119.283 E30.66502
G1 X90.213 Y118.045 E30.72533
G1 X91.59 Y117.226 E30.77862
G1 X92.186 Y116.987 E30.79998
G1 X92.6 Y116.925 E30.8139
G1 X92.6 Y111.182 E31.00491
G1 X91.879 Y111.005 E31.02961
G1 X90.158 Y110.112 E31.09409
G1 X88.93 Y108.797 E31.15394
G1 X87.906 Y107.081 E31.2204
G1 X87.66 Y105.584 E31.27086
G1 X87.6 Y86.361 E31.91022
G1 X87.995 Y84.754 E31.96526
G1 X88.888 Y83.033 E32.02975
G1 X90.213 Y81.795 E32.09006
G1 X91.59 Y80.976 E32.14335
G1 X92.186 Y80.737 E32.16471
G1 X92.6 Y80.675 E32.17863
G1 X92.6 Y63.236 E32.75865
G1 X92.995 Y61.629 E32.81369
G1 X93.888 Y59.908 E32.87818
G1 X95.203 Y58.68 E32.93802
G1 X96.919 Y57.656 E33.00449
G1 X98.416 Y57.41 E33.05495
G1 X110.508 Y57.35 E33.45713
G1 X112.122 Y57.746 E33.51241
G1 X113.842 Y58.638 E33.57685
G1 X115.08 Y59.963 E33.63716
G1 X115.496 Y60.663 E33.66424
G1 X115.888 Y59.908 E33.69254
G1 X117.212 Y58.671 E33.7528
G1 X118.719 Y57.773 E33.81115
G1 X119.056 Y57.635 E33.82326
G1 X120.729 Y57.385 E33.87953
G1 X126.515 Y57.35 E34.07197
G1 X128.111 Y57.741 E34.12662
G1 X129.842 Y58.638 E34.19147
G1 X131.07 Y59.953 E34.25131
G1 X132.094 Y61.669 E34.31778
G1 X132.34 Y63.166 E34.36823
G1 X132.4 Y87.389 E35.1739
G1 X132.005 Y88.996 E35.22894
G1 X131.112 Y90.717 E35.29342
G1 X129.787 Y91.955 E35.35374
G1 X128.41 Y92.774 E35.40702
G1 X127.814 Y93.013 E35.42838
G1 X127.4 Y93.075 E35.44231
G1 X127.4 Y98.818 E35.63332
G1 X128.121 Y98.995 E35.65801
G1 X129.842 Y99.888 E35.7225
G1 X131.07 Y101.203 E35.78234
G1 X132.094 Y102.919 E35.8488
G1 X132.34 Y104.416 E35.89926
G1 X132.4 Y123.639 E36.53863
G1 X132.005 Y125.246 E36.59367
G1 X131.112 Y126.967 E36.65815
G1 X129.787 Y128.205 E36.71847
G1 X128.41 Y129.024 E36.77175
G1 X127.814 Y129.263 E36.79311
G1 X127.4 Y129.325 E36.80703
G1 X127.4 Y135.068 E36.99805
G1 X128.121 Y135.245 E37.02274
G1 X129.842 Y136.138 E37.08723
G1 X131.07 Y137.453 E37.14707
G1 X132.094 Y139.169 E37.21353
G1 X132.34 Y140.666 E37.26399
G1 X132.4 Y151.758 E37.63292
G1 X132.004 Y153.372 E37.68819
G1 X131.112 Y155.092 E37.75264
G1 X129.787 Y156.33 E37.81295
G1 X128.41 Y157.149 E37.86624
G1 X127.811 Y157.389 E37.8877
G1 X127.225 Y157.477 E37.90741
G1 X127.005 Y158.371 E37.93803
G1 X126.112 Y160.092 E38.00252
G1 X124.797 Y161.32 E38.06236
G1 X123.081 Y162.344 E38.12882
G1 X121.584 Y162.59 E38.17928
G1 X109.492 Y162.65 E38.58147
G1 X107.878 Y162.254 E38.63674
G1 X106.158 Y161.362 E38.70119
G1 X104.92 Y160.037 E38.7615
G1 X104.101 Y158.66 E38.81479
G1 X103.862 Y158.064 E38.83614
G1 X103.8 Y157.65 E38.85007
G1 X98.486 Y157.65 E39.02681
G1 X96.879 Y157.255 E39.08185
G1 X95.158 Y156.362 E39.14634
G1 X93.924 Y155.041 E39.20646
G1 X92.945 Y153.399 E39.27005
G1 X92.894 Y153.256 E39.2751
G1 X92.645 Y151.648 E39.32922
G1 X92.616 Y147.437 E39.46928
G1 X91.88 Y147.256 E39.49449
G1 X90.158 Y146.362 E39.55902
G0 F6000 X90.403 Y146.039
G1 F1200 X89.251 Y144.805 E39.61517
G1 X88.289 Y143.193 E39.6776
G1 X88.055 Y141.769 E39.7256
G1 X88 Y122.657 E40.36127
G1 X88.371 Y121.147 E40.41299
G1 X89.211 Y119.528 E40.47365
G1 X90.454 Y118.367 E40.53022
G1 X91.794 Y117.57 E40.58208
G1 X92.294 Y117.375 E40.59993
G1 X93 Y117.268 E40.62368
G1 X93 Y110.869 E40.83651
G1 X92.022 Y110.629 E40.87001
G1 X90.403 Y109.789 E40.93067
G1 X89.251 Y108.555 E40.98682
G1 X88.289 Y106.943 E41.04925
G1 X88.055 Y105.519 E41.09725
G1 X88 Y86.407 E41.73292
G1 X88.371 Y84.897 E41.78464
G1 X89.211 Y83.278 E41.8453
G1 X90.454 Y82.117 E41.90188
G1 X91.794 Y81.32 E41.95373
G1 X92.294 Y81.125 E41.97158
G1 X93 Y81.018 E41.99533
G1 X93 Y63.282 E42.58523
G1 X93.371 Y61.772 E42.63695
G1 X94.211 Y60.153 E42.69761
G1 X95.445 Y59.001 E42.75376
G1 X97.057 Y58.039 E42.8162
G1 X98.481 Y57.805 E42.8642
G1 X110.463 Y57.75 E43.26272
G1 X111.979 Y58.122 E43.31464
G1 X113.597 Y58.961 E43.37526
G1 X114.758 Y60.204 E43.43183
G1 X115.52 Y61.485 E43.48141
G1 X116.211 Y60.153 E43.53132
G1 X117.451 Y58.995 E43.58775
G1 X118.924 Y58.117 E43.64478
G1 X119.167 Y58.022 E43.65346
G1 X120.731 Y57.785 E43.70607
G1 X126.466 Y57.75 E43.89682
G1 X127.972 Y58.119 E43.94839
G1 X129.597 Y58.961 E44.00927
G1 X130.749 Y60.195 E44.06541
G1 X131.711 Y61.807 E44.12785
G1 X131.945 Y63.231 E44.17585
G1 X132 Y87.343 E44.97782
G1 X131.629 Y88.853 E45.02954
G1 X130.789 Y90.472 E45.0902
G1 X129.546 Y91.633 E45.14677
G1 X128.206 Y92.43 E45.19863
G1 X127.706 Y92.625 E45.21648
G1 X127 Y92.732 E45.24023
G1 X127 Y99.131 E45.45306
G1 X127.978 Y99.371 E45.48655
G1 X129.597 Y100.211 E45.54722
G1 X130.749 Y101.445 E45.60337
G1 X131.711 Y103.057 E45.6658
G1 X131.945 Y104.481 E45.7138
G1 X132 Y123.593 E46.34947
G1 X131.629 Y125.103 E46.40119
G1 X130.789 Y126.722 E46.46185
G1 X129.546 Y127.883 E46.51842
G1 X128.206 Y128.68 E46.57028
G1 X127.706 Y128.875 E46.58813
G1 X127 Y128.982 E46.61188
G1 X127 Y135.381 E46.82471
G1 X127.978 Y135.621 E46.8582
G1 X129.597 Y136.461 E46.91887
G1 X130.749 Y137.695 E46.97502
G1 X131.711 Y139.307 E47.03745
G1 X131.945 Y140.731 E47.08545
G1 X132 Y151.713 E47.45072
G1 X131.628 Y153.229 E47.50264
G1 X130.789 Y154.847 E47.56326
G1 X129.546 Y156.008 E47.61983
G1 X128.206 Y156.805 E47.67168
G1 X127.706 Y157 E47.68953
G1 X126.901 Y157.121 E47.71661
G1 X126.629 Y158.228 E47.75452
G1 X125.789 Y159.847 E47.81519
G1 X124.555 Y160.999 E47.87134
G1 X122.943 Y161.961 E47.93377
G1 X121.519 Y162.195 E47.98177
G1 X109.537 Y162.25 E48.3803
G1 X108.021 Y161.878 E48.43222
G1 X106.403 Y161.039 E48.49284
G1 X105.242 Y159.796 E48.54941
G1 X104.445 Y158.456 E48.60126
G1 X104.25 Y157.956 E48.61911
G1 X104.143 Y157.25 E48.64286
G1 X98.532 Y157.25 E48.82949
G1 X97.022 Y156.879 E48.8812
G1 X95.403 Y156.039 E48.94187
G1 X94.248 Y154.802 E48.99816
G1 X93.289 Y153.194 E49.06043
G1 X93.045 Y151.645 E49.11258
G1 X93.014 Y147.123 E49.26299
G1 X92.022 Y146.879 E49.29697
G1 X90.403 Y146.039 E49.35763
G0 F6000 X90.648 Y145.716
G1 F1200 X89.572 Y144.563 E49.41008
G1 X88.672 Y143.055 E49.46849
G1 X88.45 Y141.704 E49.51403
G1 X88.4 Y122.704 E50.14598
G1 X88.748 Y121.289 E50.19444
G1 X89.534 Y119.773 E50.25124
G1 X90.693 Y118.691 E50.30397
G1 X91.999 Y117.914 E50.35452
G1 X92.394 Y117.765 E50.36856
G1 X93.4 Y117.613 E50.4024
G1 X93.4 Y110.556 E50.63712
G1 X92.165 Y110.253 E50.67941
G1 X90.648 Y109.466 E50.73625
G1 X89.572 Y108.313 E50.7887
G1 X88.672 Y106.805 E50.84711
G1 X88.45 Y105.454 E50.89265
G1 X88.4 Y86.454 E51.5246
G1 X88.748 Y85.039 E51.57306
G1 X89.534 Y83.523 E51.62986
G1 X90.693 Y82.441 E51.68259
G1 X91.999 Y81.664 E51.73314
