;FLAVOR:Marlin
;TIME:10519
;Filament used: 6.21365m
;Layer height: 0.2
;MINX:27.2
;MINY:92.2
;MINZ:0.2
;MAXX:192.801
;MAXY:127.8
;MAXZ:12.2
;TARGET_MACHINE.NAME:Creality Ender-3 Pro
;Generated with Cura_SteamEngine 5.9.0
M82 ;absolute extrusion mode
; Ender 3 Custom Start G-code
G92 E0 ; Reset Extruder
G28 ; Home all axes
G1 Z5.0 F3000 ; Move Z Axis up a bit during heating to not damage bed
M104 S175 ; Start heating up the nozzle most of the way
M190 S60 ; Start heating the bed, wait until target temperature reached
M109 S225.0 ; Finish heating the nozzle
G1 Z2.0 F3000 ; Move Z Axis up little to prevent scratching of Heat Bed
G1 X0.1 Y20 Z0.3 F5000.0 ; Move to start position
G1 X0.1 Y200.0 Z0.3 F1500.0 E15 ; Draw the first line
G1 X0.4 Y200.0 Z0.3 F5000.0 ; Move to side a little
G1 X0.4 Y20 Z0.3 F1500.0 E30 ; Draw the second line
G92 E0 ; Reset Extruder
G1 Z2.0 F3000 ; Move Z Axis up little to prevent scratching of Heat Bed
G1 X5 Y20 Z0.3 F5000.0 ; Move over to prevent blob squish
G92 E0
G92 E0
G1 F1500 E-6.5
;LAYER_COUNT:61
;LAYER:0
M107
G0 F6000 X34.147 Y127.8 Z0.2
;TYPE:SKIRT
G1 F1500 E0
G1 F1200 X32.251 Y127.334 E0.06494
G1 X30.223 Y126.281 E0.14094
G1 X28.764 Y124.72 E0.21201
G1 X27.557 Y122.697 E0.29036
G1 X27.275 Y120.979 E0.34826
G1 X27.2 Y105.849 E0.8515
G1 X27.253 Y104.793 E0.88666
G1 X27.297 Y104.37 E0.90081
G1 X27.54 Y102.925 E0.94954
G1 X27.64 Y102.517 E0.96351
G1 X28.057 Y101.21 E1.00914
G1 X28.306 Y100.586 E1.03149
G1 X28.879 Y99.396 E1.07542
G1 X29.135 Y98.946 E1.09264
G1 X29.847 Y97.865 E1.13569
G1 X30.201 Y97.399 E1.15516
G1 X30.866 Y96.636 E1.18882
G1 X31.662 Y95.838 E1.22631
G1 X32.409 Y95.193 E1.25913
G1 X32.846 Y94.862 E1.27737
G1 X34.079 Y94.052 E1.32643
G1 X34.521 Y93.806 E1.34326
G1 X35.463 Y93.36 E1.37792
G1 X36.607 Y92.917 E1.41873
G1 X37.366 Y92.685 E1.44512
G1 X38.374 Y92.447 E1.47957
G1 X39.014 Y92.34 E1.50115
G1 X40.319 Y92.214 E1.54476
G1 X40.727 Y92.2 E1.55834
G1 X179.163 Y92.2 E6.16274
G1 X180.207 Y92.253 E6.19751
G1 X180.63 Y92.297 E6.21165
G1 X182.075 Y92.54 E6.26039
G1 X182.483 Y92.64 E6.27436
G1 X183.816 Y93.065 E6.32089
G1 X184.389 Y93.293 E6.3414
G1 X185.561 Y93.858 E6.38468
G1 X186.067 Y94.146 E6.40404
G1 X187.075 Y94.816 E6.4443
G1 X187.894 Y95.439 E6.47853
G1 X188.244 Y95.744 E6.49397
G1 X189.198 Y96.695 E6.53877
G1 X189.66 Y97.226 E6.56218
G1 X190.304 Y98.081 E6.59778
G1 X190.814 Y98.864 E6.62886
G1 X191.266 Y99.676 E6.65977
G1 X191.695 Y100.591 E6.69338
G1 X192.055 Y101.52 E6.72652
G1 X192.313 Y102.365 E6.75591
G1 X192.558 Y103.402 E6.79135
G1 X192.66 Y104.013 E6.81195
G1 X192.786 Y105.378 E6.85754
G1 X192.8 Y106 E6.87824
G1 X192.801 Y120.88 E7.37315
G1 X192.356 Y122.72 E7.43611
G1 X191.286 Y124.782 E7.51338
G1 X189.691 Y126.262 E7.58574
G1 X187.71 Y127.443 E7.66245
G1 X185.978 Y127.725 E7.72082
G1 X34.147 Y127.8 E12.77074
G0 F6000 X34.193 Y127.4
G1 F1200 X32.394 Y126.958 E12.83235
G1 X30.468 Y125.958 E12.90453
G1 X29.088 Y124.481 E12.97176
G1 X27.94 Y122.557 E13.04628
G1 X27.67 Y120.914 E13.10166
G1 X27.6 Y105.847 E13.6028
G1 X27.651 Y104.834 E13.63653
G1 X27.695 Y104.411 E13.65068
G1 X27.929 Y103.02 E13.69759
G1 X28.029 Y102.612 E13.71156
G1 X28.429 Y101.358 E13.75534
G1 X28.678 Y100.734 E13.77769
G1 X29.227 Y99.594 E13.81977
G1 X29.483 Y99.144 E13.83699
G1 X30.181 Y98.085 E13.87918
G1 X30.503 Y97.662 E13.89686
G1 X31.168 Y96.899 E13.93052
G1 X31.945 Y96.121 E13.96709
G1 X32.651 Y95.512 E13.9981
G1 X33.088 Y95.181 E14.01634
G1 X34.274 Y94.402 E14.06353
G1 X34.716 Y94.156 E14.08036
G1 X35.608 Y93.733 E14.11319
G1 X36.724 Y93.3 E14.15301
G1 X37.483 Y93.068 E14.1794
G1 X38.44 Y92.842 E14.21211
G1 X39.08 Y92.735 E14.23369
G1 X40.333 Y92.614 E14.27556
G1 X40.741 Y92.6 E14.28914
G1 X179.163 Y92.6 E18.89307
G1 X180.166 Y92.651 E18.92647
G1 X180.589 Y92.695 E18.94062
G1 X181.98 Y92.929 E18.98753
G1 X182.388 Y93.029 E19.00151
G1 X183.668 Y93.437 E19.04619
G1 X184.241 Y93.665 E19.0667
G1 X185.363 Y94.206 E19.10813
G1 X185.869 Y94.494 E19.1275
G1 X186.853 Y95.149 E19.16681
G1 X187.631 Y95.741 E19.19933
G1 X187.981 Y96.046 E19.21477
G1 X188.915 Y96.978 E19.25865
G1 X189.34 Y97.467 E19.2802
G1 X189.984 Y98.322 E19.3158
G1 X190.464 Y99.059 E19.34506
G1 X190.916 Y99.871 E19.37597
G1 X191.333 Y100.761 E19.40866
G1 X191.672 Y101.637 E19.4399
G1 X191.93 Y102.482 E19.46928
G1 X192.163 Y103.468 E19.50298
G1 X192.265 Y104.079 E19.52358
G1 X192.386 Y105.387 E19.56727
G1 X192.4 Y106 E19.58767
G1 X192.401 Y120.831 E20.08095
G1 X191.978 Y122.58 E20.1408
G1 X190.963 Y124.536 E20.21409
G1 X189.452 Y125.938 E20.28265
G1 X187.57 Y127.06 E20.35552
G1 X185.914 Y127.33 E20.41133
G1 X34.193 Y127.4 E25.45759
G0 F6000 X34.24 Y127
G1 F1200 X32.536 Y126.581 E25.51596
G1 X30.713 Y125.635 E25.58427
G1 X29.409 Y124.239 E25.6478
G1 X28.323 Y122.419 E25.71829
G1 X28.065 Y120.849 E25.77121
G1 X28 Y105.845 E26.27025
G1 X28.049 Y104.875 E26.30256
G1 X28.093 Y104.452 E26.3167
G1 X28.318 Y103.115 E26.3618
G1 X28.418 Y102.707 E26.37577
G1 X28.801 Y101.506 E26.41769
G1 X29.05 Y100.882 E26.44004
G1 X29.575 Y99.792 E26.48028
G1 X29.831 Y99.342 E26.4975
G1 X30.5 Y98.327 E26.53793
G1 X30.805 Y97.925 E26.55472
G1 X31.47 Y97.162 E26.58838
G1 X32.207 Y96.424 E26.62307
G1 X32.893 Y95.831 E26.65323
G1 X33.33 Y95.5 E26.67146
G1 X34.469 Y94.752 E26.71678
G1 X34.911 Y94.506 E26.73361
G1 X35.779 Y94.095 E26.76555
G1 X36.841 Y93.683 E26.80344
G1 X37.6 Y93.451 E26.82984
G1 X38.506 Y93.237 E26.8608
G1 X39.146 Y93.13 E26.88238
G1 X40.347 Y93.014 E26.92251
G1 X40.755 Y93 E26.93609
G1 X179.163 Y93 E31.53956
G1 X180.125 Y93.049 E31.5716
G1 X180.548 Y93.093 E31.58574
G1 X181.885 Y93.318 E31.63083
G1 X182.293 Y93.418 E31.64481
G1 X183.52 Y93.809 E31.68764
G1 X184.093 Y94.037 E31.70815
G1 X185.165 Y94.554 E31.74773
G1 X185.671 Y94.842 E31.7671
G1 X186.611 Y95.467 E31.80464
G1 X187.368 Y96.043 E31.83628
G1 X187.718 Y96.348 E31.85172
G1 X188.632 Y97.261 E31.89469
G1 X189.02 Y97.708 E31.91438
G1 X189.664 Y98.563 E31.94998
G1 X190.114 Y99.254 E31.97741
G1 X190.566 Y100.066 E32.00832
G1 X190.971 Y100.931 E32.04008
G1 X191.289 Y101.754 E32.06943
G1 X191.547 Y102.599 E32.09881
G1 X191.768 Y103.534 E32.13077
G1 X191.87 Y104.145 E32.15137
G1 X191.986 Y105.396 E32.19316
G1 X192 Y106 E32.21325
G1 X192.001 Y120.782 E32.70491
G1 X191.6 Y122.44 E32.76164
G1 X190.64 Y124.29 E32.83096
G1 X189.213 Y125.614 E32.89571
G1 X187.43 Y126.677 E32.96475
G1 X185.85 Y126.935 E33.018
G1 X34.24 Y127 E38.06057
G0 F6000 X34.286 Y126.6
G1 F1200 X32.679 Y126.205 E38.11561
G1 X30.958 Y125.312 E38.18009
G1 X29.73 Y123.997 E38.23994
G1 X28.706 Y122.281 E38.3064
G1 X28.46 Y120.784 E38.35686
G1 X28.4 Y105.843 E38.8538
G1 X28.447 Y104.916 E38.88467
G1 X28.491 Y104.493 E38.89882
G1 X28.707 Y103.21 E38.94209
G1 X28.807 Y102.802 E38.95606
G1 X29.173 Y101.654 E38.99614
G1 X29.422 Y101.03 E39.01849
G1 X29.923 Y99.99 E39.05688
G1 X30.179 Y99.54 E39.0741
G1 X30.834 Y98.547 E39.11367
G1 X31.107 Y98.188 E39.12867
G1 X31.772 Y97.425 E39.16233
G1 X32.49 Y96.707 E39.1961
G1 X33.135 Y96.15 E39.22445
G1 X33.572 Y95.819 E39.24268
G1 X34.664 Y95.102 E39.28613
G1 X35.106 Y94.856 E39.30295
G1 X35.924 Y94.468 E39.33307
G1 X36.958 Y94.066 E39.36997
G1 X37.717 Y93.834 E39.39636
G1 X38.572 Y93.632 E39.42558
G1 X39.212 Y93.525 E39.44717
G1 X40.361 Y93.414 E39.48556
G1 X40.769 Y93.4 E39.49914
G1 X179.163 Y93.4 E44.10214
G1 X180.084 Y93.447 E44.13281
G1 X180.507 Y93.491 E44.14696
G1 X181.79 Y93.707 E44.19023
G1 X182.198 Y93.807 E44.2042
G1 X183.372 Y94.181 E44.24518
G1 X183.945 Y94.409 E44.26569
G1 X184.967 Y94.902 E44.30344
G1 X185.473 Y95.19 E44.3228
G1 X186.369 Y95.785 E44.35857
G1 X187.105 Y96.345 E44.38933
G1 X187.455 Y96.65 E44.40477
G1 X188.33 Y97.524 E44.44591
G1 X188.7 Y97.949 E44.46465
G1 X189.344 Y98.804 E44.50025
G1 X189.764 Y99.449 E44.52585
G1 X190.216 Y100.261 E44.55676
G1 X190.598 Y101.076 E44.5867
G1 X190.906 Y101.871 E44.61505
G1 X191.164 Y102.716 E44.64444
G1 X191.373 Y103.6 E44.67465
G1 X191.475 Y104.211 E44.69526
G1 X191.586 Y105.405 E44.73514
G1 X191.6 Y106 E44.75493
G1 X191.601 Y120.733 E45.24496
G1 X191.222 Y122.3 E45.29858
G1 X190.317 Y124.044 E45.36393
G1 X188.974 Y125.29 E45.42486
G1 X187.29 Y126.294 E45.49007
G1 X185.785 Y126.54 E45.54079
G1 X34.286 Y126.6 E50.57967
G0 F6000 X34.332 Y126.2
G1 F1200 X32.822 Y125.829 E50.63138
G1 X31.203 Y124.989 E50.69205
G1 X30.051 Y123.755 E50.7482
G1 X29.089 Y122.143 E50.81063
G1 X28.855 Y120.719 E50.85863
G1 X28.8 Y105.842 E51.35345
G1 X28.845 Y104.957 E51.38292
G1 X28.889 Y104.534 E51.39706
G1 X29.096 Y103.305 E51.43852
G1 X29.196 Y102.897 E51.45249
G1 X29.545 Y101.802 E51.49071
G1 X29.794 Y101.178 E51.51306
G1 X30.271 Y100.188 E51.54961
G1 X30.527 Y99.738 E51.56683
G1 X31.153 Y98.789 E51.60464
G1 X31.409 Y98.451 E51.61874
G1 X32.074 Y97.688 E51.65241
G1 X32.773 Y96.99 E51.68526
G1 X33.377 Y96.469 E51.71179
G1 X33.814 Y96.138 E51.73003
G1 X34.859 Y95.452 E51.7716
G1 X35.301 Y95.206 E51.78843
G1 X36.095 Y94.83 E51.81765
G1 X37.075 Y94.449 E51.85262
G1 X37.834 Y94.217 E51.87902
G1 X38.638 Y94.027 E51.90649
G1 X39.278 Y93.92 E51.92808
G1 X40.375 Y93.814 E51.96473
G1 X40.783 Y93.8 E51.97831
G1 X179.143 Y93.8 E56.58018
G1 X180.043 Y93.845 E56.61015
G1 X180.466 Y93.889 E56.6243
G1 X181.695 Y94.096 E56.66575
G1 X182.103 Y94.196 E56.67972
G1 X183.224 Y94.553 E56.71885
G1 X183.797 Y94.781 E56.73936
G1 X184.769 Y95.25 E56.77526
G1 X185.275 Y95.538 E56.79462
G1 X186.147 Y96.118 E56.82946
G1 X186.842 Y96.647 E56.85851
G1 X187.192 Y96.952 E56.87395
G1 X188.047 Y97.807 E56.91416
G1 X188.38 Y98.19 E56.93105
G1 X189.024 Y99.045 E56.96665
G1 X189.414 Y99.644 E56.99042
G1 X189.866 Y100.456 E57.02133
G1 X190.236 Y101.246 E57.05034
G1 X190.523 Y101.988 E57.07681
G1 X190.781 Y102.833 E57.10619
G1 X190.978 Y103.666 E57.13466
G1 X191.08 Y104.277 E57.15526
G1 X191.186 Y105.415 E57.19328
G1 X191.2 Y106 E57.21274
G1 X191.201 Y120.684 E57.70113
G1 X190.844 Y122.16 E57.75164
G1 X189.994 Y123.798 E57.81302
G1 X188.735 Y124.966 E57.87014
G1 X187.15 Y125.911 E57.93151
G1 X185.72 Y126.145 E57.97971
G1 X34.332 Y126.2 E63.01489
G0 F6000 X34.379 Y125.8
G1 F1200 X32.964 Y125.452 E63.06336
G1 X31.448 Y124.666 E63.12016
G1 X30.372 Y123.513 E63.17261
G1 X29.472 Y122.005 E63.23102
G1 X29.25 Y120.654 E63.27656
G1 X29.2 Y105.841 E63.76924
G1 X29.243 Y104.998 E63.79732
G1 X29.287 Y104.575 E63.81146
G1 X29.485 Y103.4 E63.85109
G1 X29.585 Y102.992 E63.86507
G1 X29.917 Y101.95 E63.90144
G1 X30.166 Y101.326 E63.92378
G1 X30.619 Y100.386 E63.95849
G1 X30.875 Y99.936 E63.97571
G1 X31.472 Y99.031 E64.01177
G1 X31.728 Y98.693 E64.02587
G1 X32.375 Y97.951 E64.05862
G1 X33.035 Y97.293 E64.08961
G1 X33.619 Y96.788 E64.11529
G1 X34.056 Y96.457 E64.13353
G1 X35.054 Y95.802 E64.17323
G1 X35.496 Y95.556 E64.19005
G1 X36.24 Y95.203 E64.21744
G1 X37.192 Y94.832 E64.25143
G1 X37.951 Y94.6 E64.27782
G1 X38.704 Y94.422 E64.30356
G1 X39.344 Y94.315 E64.32514
G1 X40.389 Y94.214 E64.36006
G1 X40.797 Y94.2 E64.37364
G1 X179.143 Y94.2 E68.97504
G1 X180.002 Y94.243 E69.00365
G1 X180.425 Y94.287 E69.0178
G1 X181.6 Y94.485 E69.05743
G1 X182.008 Y94.585 E69.0714
G1 X183.076 Y94.925 E69.10868
G1 X183.649 Y95.153 E69.12919
G1 X184.571 Y95.598 E69.16324
G1 X185.077 Y95.886 E69.1826
G1 X185.905 Y96.437 E69.21568
G1 X186.579 Y96.949 E69.24384
G1 X186.929 Y97.254 E69.25928
G1 X187.764 Y98.09 E69.29858
G1 X188.06 Y98.431 E69.3136
G1 X188.704 Y99.286 E69.3492
G1 X189.064 Y99.839 E69.37114
G1 X189.516 Y100.651 E69.40205
G1 X189.863 Y101.391 E69.42924
G1 X190.14 Y102.105 E69.45471
G1 X190.398 Y102.95 E69.4841
G1 X190.583 Y103.732 E69.51082
G1 X190.685 Y104.343 E69.53143
G1 X190.786 Y105.425 E69.56757
G1 X190.8 Y106 E69.5867
G1 X190.801 Y120.635 E70.07346
G1 X190.466 Y122.02 E70.12086
G1 X189.671 Y123.552 E70.17826
G1 X188.496 Y124.642 E70.23157
G1 X187.01 Y125.528 E70.28911
G1 X185.655 Y125.75 E70.33478
G1 X34.379 Y125.8 E75.36624
G0 F6000 X34.425 Y125.4
G1 F1200 X33.107 Y125.076 E75.41138
G1 X31.693 Y124.343 E75.46436
G1 X30.693 Y123.271 E75.51312
G1 X29.855 Y121.867 E75.5675
G1 X29.645 Y120.589 E75.61057
G1 X29.6 Y105.84 E76.10113
G1 X29.641 Y105.039 E76.12781
G1 X29.685 Y104.616 E76.14195
G1 X29.874 Y103.495 E76.17976
G1 X29.974 Y103.087 E76.19373
G1 X30.289 Y102.098 E76.22826
G1 X30.538 Y101.474 E76.2506
G1 X30.967 Y100.584 E76.28346
G1 X31.223 Y100.134 E76.30068
G1 X31.791 Y99.273 E76.33499
G1 X32.047 Y98.935 E76.34909
G1 X32.676 Y98.214 E76.38092
G1 X33.297 Y97.595 E76.41008
G1 X33.861 Y97.107 E76.43489
G1 X34.298 Y96.776 E76.45312
G1 X35.249 Y96.152 E76.49095
G1 X35.691 Y95.906 E76.50777
G1 X36.411 Y95.565 E76.53427
G1 X37.309 Y95.215 E76.56633
G1 X38.068 Y94.983 E76.59273
G1 X38.77 Y94.817 E76.61672
G1 X39.41 Y94.71 E76.6383
G1 X40.403 Y94.614 E76.67148
G1 X40.811 Y94.6 E76.68506
G1 X179.143 Y94.6 E81.286
G1 X179.961 Y94.641 E81.31324
G1 X180.384 Y94.685 E81.32739
G1 X181.505 Y94.874 E81.3652
G1 X181.913 Y94.974 E81.37917
G1 X182.928 Y95.297 E81.4146
G1 X183.501 Y95.525 E81.43511
G1 X184.374 Y95.946 E81.46734
G1 X184.855 Y96.219 E81.48574
G1 X185.683 Y96.77 E81.51882
G1 X186.316 Y97.251 E81.54526
G1 X186.666 Y97.556 E81.5607
G1 X187.462 Y98.353 E81.59817
G1 X187.74 Y98.672 E81.61224
G1 X188.384 Y99.527 E81.64784
G1 X188.714 Y100.034 E81.66796
G1 X189.166 Y100.846 E81.69887
G1 X189.49 Y101.536 E81.72423
G1 X189.757 Y102.222 E81.74871
G1 X190.015 Y103.067 E81.77809
G1 X190.188 Y103.798 E81.80308
G1 X190.29 Y104.409 E81.82368
G1 X190.386 Y105.435 E81.85796
G1 X190.4 Y106 E81.87675
G1 X190.401 Y120.586 E82.36189
G1 X190.088 Y121.88 E82.40617
G1 X189.348 Y123.306 E82.4596
G1 X188.257 Y124.318 E82.5091
G1 X186.87 Y125.145 E82.56281
G1 X185.59 Y125.355 E82.60595
G1 X34.425 Y125.4 E87.63372
G0 F6000 X34.471 Y125
G1 F1200 X33.25 Y124.7 E87.67553
G1 X31.94 Y124.021 E87.72461
G1 X31.012 Y123.026 E87.76986
G1 X30.238 Y121.729 E87.8201
G1 X30.04 Y120.524 E87.86072
G1 X30 Y105.86 E88.34844
G1 X30.039 Y105.08 E88.37442
G1 X30.083 Y104.657 E88.38856
G1 X30.263 Y103.59 E88.42455
G1 X30.363 Y103.182 E88.43853
G1 X30.661 Y102.246 E88.4712
G1 X30.91 Y101.622 E88.49354
G1 X31.315 Y100.782 E88.52456
G1 X31.571 Y100.332 E88.54178
G1 X32.11 Y99.515 E88.57433
G1 X32.366 Y99.177 E88.58844
G1 X32.977 Y98.477 E88.61934
G1 X33.559 Y97.897 E88.64667
G1 X34.103 Y97.426 E88.6706
G1 X34.54 Y97.095 E88.68883
G1 X35.444 Y96.502 E88.72479
G1 X35.886 Y96.256 E88.74162
G1 X36.557 Y95.938 E88.76631
G1 X37.426 Y95.598 E88.79735
G1 X38.185 Y95.366 E88.82375
G1 X38.836 Y95.212 E88.846
G1 X39.476 Y95.105 E88.86758
G1 X40.417 Y95.014 E88.89902
G1 X40.825 Y95 E88.9126
G1 X179.143 Y95 E93.51308
G1 X179.92 Y95.039 E93.53895
G1 X180.343 Y95.083 E93.5531
G1 X181.41 Y95.263 E93.58909
G1 X181.818 Y95.363 E93.60306
G1 X182.78 Y95.669 E93.63664
G1 X183.353 Y95.897 E93.65715
G1 X184.177 Y96.294 E93.68757
G1 X184.633 Y96.552 E93.70499
G1 X185.461 Y97.103 E93.73807
G1 X186.053 Y97.553 E93.76281
G1 X186.403 Y97.858 E93.77825
G1 X187.16 Y98.616 E93.81388
G1 X187.438 Y98.935 E93.82795
G1 X188.049 Y99.746 E93.86172
G1 X188.364 Y100.229 E93.8809
G1 X188.816 Y101.041 E93.91181
G1 X189.117 Y101.682 E93.93537
G1 X189.374 Y102.339 E93.95883
G1 X189.632 Y103.184 E93.98822
G1 X189.793 Y103.864 E94.01146
G1 X189.895 Y104.475 E94.03206
G1 X189.986 Y105.445 E94.06447
G1 X190 Y106 E94.08293
G1 X190.001 Y120.537 E94.56643
G1 X189.71 Y121.74 E94.6076
G1 X189.025 Y123.06 E94.65706
G1 X188.018 Y123.994 E94.70274
G1 X186.73 Y124.762 E94.75262
G1 X185.525 Y124.96 E94.79324
G1 X34.471 Y125 E99.81731
G0 F6000 X34.517 Y124.6
G1 F1200 X33.393 Y124.324 E99.85581
G1 X32.187 Y123.699 E99.90099
G1 X31.334 Y122.784 E99.94259
G1 X30.621 Y121.589 E99.98888
G1 X30.435 Y120.459 E100.02696
G1 X30.4 Y105.859 E100.51256
G1 X30.437 Y105.121 E100.53714
G1 X30.481 Y104.698 E100.55129
G1 X30.652 Y103.685 E100.58546
G1 X30.752 Y103.277 E100.59943
G1 X31.033 Y102.394 E100.63025
G1 X31.282 Y101.77 E100.65259
G1 X31.663 Y100.98 E100.68176
G1 X31.919 Y100.53 E100.69898
G1 X32.429 Y99.757 E100.72979
G1 X32.685 Y99.419 E100.74389
G1 X33.278 Y98.74 E100.77387
G1 X33.821 Y98.199 E100.79937
G1 X34.345 Y97.745 E100.82243
G1 X34.782 Y97.414 E100.84066
G1 X35.639 Y96.852 E100.87475
