;FLAVOR:Marlin
;TIME:10591
;Filament used: 6.2143m
;Layer height: 0.2
;MINX:27.2
;MINY:67.3
;MINZ:0.2
;MAXX:192.801
;MAXY:102.9
;MAXZ:12.2
;TARGET_MACHINE.NAME:Creality Ender-3 Pro
;Generated with Cura_SteamEngine 5.9.0
M82 ;absolute extrusion mode
; Ender 3 Custom Start G-code
G92 E0 ; Reset Extruder
G28 ; Home all axes
G1 Z5.0 F3000 ; Move Z Axis up a bit during heating to not damage bed
M104 S175 ; Start heating up the nozzle most of the way
M190 S60 ; Start heating the bed, wait until target temperature reached
M109 S220.0 ; Finish heating the nozzle
G1 Z2.0 F3000 ; Move Z Axis up little to prevent scratching of Heat Bed
G1 X0.1 Y20 Z0.3 F5000.0 ; Move to start position
G1 X0.1 Y200.0 Z0.3 F1500.0 E15 ; Draw the first line
G1 X0.4 Y200.0 Z0.3 F5000.0 ; Move to side a little
G1 X0.4 Y20 Z0.3 F1500.0 E30 ; Draw the second line
G92 E0 ; Reset Extruder
G1 Z2.0 F3000 ; Move Z Axis up little to prevent scratching of Heat Bed
G1 X5 Y20 Z0.3 F5000.0 ; Move over to prevent blob squish
G92 E0
G92 E0
G1 F1500 E-6.5
;LAYER_COUNT:61
;LAYER:0
M107
G0 F6000 X32.251 Y102.434 Z0.2
;TYPE:SKIRT
G1 F1500 E0
G1 F1200 X30.223 Y101.381 E0.076
G1 X28.764 Y99.82 E0.14707
G1 X27.557 Y97.797 E0.22542
G1 X27.275 Y96.079 E0.28333
G1 X27.2 Y80.949 E0.78656
G1 X27.253 Y79.893 E0.82172
G1 X27.297 Y79.47 E0.83587
G1 X27.54 Y78.025 E0.8846
G1 X27.64 Y77.617 E0.89858
G1 X28.057 Y76.31 E0.94421
G1 X28.306 Y75.686 E0.96655
G1 X28.879 Y74.496 E1.01048
G1 X29.135 Y74.046 E1.0277
G1 X29.847 Y72.965 E1.07075
G1 X30.201 Y72.499 E1.09022
G1 X30.866 Y71.736 E1.12388
G1 X31.662 Y70.938 E1.16137
G1 X32.409 Y70.293 E1.19419
G1 X32.846 Y69.962 E1.21243
G1 X34.079 Y69.152 E1.2615
G1 X34.521 Y68.906 E1.27832
G1 X35.463 Y68.46 E1.31299
G1 X36.607 Y68.017 E1.35379
G1 X37.366 Y67.785 E1.38019
G1 X38.374 Y67.547 E1.41463
G1 X39.014 Y67.44 E1.43622
G1 X40.319 Y67.314 E1.47982
G1 X40.727 Y67.3 E1.4934
G1 X179.163 Y67.3 E6.0978
G1 X180.207 Y67.353 E6.13257
G1 X180.63 Y67.397 E6.14671
G1 X182.075 Y67.64 E6.19545
G1 X182.483 Y67.74 E6.20942
G1 X183.816 Y68.165 E6.25596
G1 X184.389 Y68.393 E6.27647
G1 X185.561 Y68.958 E6.31974
G1 X186.067 Y69.246 E6.33911
G1 X187.075 Y69.916 E6.37936
G1 X187.894 Y70.539 E6.41359
G1 X188.244 Y70.844 E6.42903
G1 X189.198 Y71.795 E6.47383
G1 X189.66 Y72.326 E6.49724
G1 X190.304 Y73.181 E6.53284
G1 X190.814 Y73.964 E6.56392
G1 X191.266 Y74.776 E6.59483
G1 X191.695 Y75.691 E6.62844
G1 X192.055 Y76.62 E6.66158
G1 X192.313 Y77.465 E6.69097
G1 X192.558 Y78.502 E6.72641
G1 X192.66 Y79.113 E6.74701
G1 X192.786 Y80.478 E6.7926
G1 X192.8 Y81.1 E6.8133
G1 X192.801 Y95.98 E7.30821
G1 X192.356 Y97.82 E7.37117
G1 X191.286 Y99.882 E7.44844
G1 X189.691 Y101.362 E7.52081
G1 X187.71 Y102.543 E7.59752
G1 X185.978 Y102.825 E7.65588
G1 X34.147 Y102.9 E12.7058
G1 X32.251 Y102.434 E12.77074
G0 F6000 X32.394 Y102.058
G1 F1200 X30.468 Y101.058 E12.84292
G1 X29.088 Y99.581 E12.91015
G1 X27.94 Y97.657 E12.98467
G1 X27.67 Y96.014 E13.04005
G1 X27.6 Y80.947 E13.54118
G1 X27.651 Y79.934 E13.57492
G1 X27.695 Y79.511 E13.58906
G1 X27.929 Y78.12 E13.63598
G1 X28.029 Y77.712 E13.64995
G1 X28.429 Y76.458 E13.69373
G1 X28.678 Y75.834 E13.71607
G1 X29.227 Y74.694 E13.75816
G1 X29.483 Y74.244 E13.77538
G1 X30.181 Y73.185 E13.81756
G1 X30.503 Y72.762 E13.83524
G1 X31.168 Y71.999 E13.86891
G1 X31.945 Y71.221 E13.90548
G1 X32.651 Y70.612 E13.93649
G1 X33.088 Y70.281 E13.95472
G1 X34.274 Y69.502 E14.00192
G1 X34.716 Y69.256 E14.01874
G1 X35.608 Y68.833 E14.05158
G1 X36.724 Y68.4 E14.09139
G1 X37.483 Y68.168 E14.11779
G1 X38.44 Y67.942 E14.15049
G1 X39.08 Y67.835 E14.17208
G1 X40.333 Y67.714 E14.21394
G1 X40.741 Y67.7 E14.22752
G1 X179.163 Y67.7 E18.83146
G1 X180.166 Y67.751 E18.86486
G1 X180.589 Y67.795 E18.87901
G1 X181.98 Y68.029 E18.92592
G1 X182.388 Y68.129 E18.93989
G1 X183.668 Y68.537 E18.98458
G1 X184.241 Y68.765 E19.00509
G1 X185.363 Y69.306 E19.04652
G1 X185.869 Y69.594 E19.06588
G1 X186.853 Y70.249 E19.1052
G1 X187.631 Y70.841 E19.13771
G1 X187.981 Y71.146 E19.15315
G1 X188.915 Y72.078 E19.19704
G1 X189.34 Y72.567 E19.21859
G1 X189.984 Y73.422 E19.25419
G1 X190.464 Y74.159 E19.28344
G1 X190.916 Y74.971 E19.31435
G1 X191.333 Y75.861 E19.34704
G1 X191.672 Y76.737 E19.37828
G1 X191.93 Y77.582 E19.40767
G1 X192.163 Y78.568 E19.44137
G1 X192.265 Y79.179 E19.46197
G1 X192.386 Y80.487 E19.50566
G1 X192.4 Y81.1 E19.52605
G1 X192.401 Y95.931 E20.01933
G1 X191.978 Y97.68 E20.07918
G1 X190.963 Y99.636 E20.15248
G1 X189.452 Y101.038 E20.22103
G1 X187.57 Y102.16 E20.29391
G1 X185.914 Y102.43 E20.34972
G1 X34.193 Y102.5 E25.39598
G1 X32.394 Y102.058 E25.45759
G0 F6000 X32.536 Y101.681
G1 F1200 X30.713 Y100.735 E25.5259
G1 X29.409 Y99.339 E25.58944
G1 X28.323 Y97.519 E25.65993
G1 X28.065 Y95.949 E25.71285
G1 X28 Y80.945 E26.21189
G1 X28.049 Y79.975 E26.24419
G1 X28.093 Y79.552 E26.25834
G1 X28.318 Y78.215 E26.30343
G1 X28.418 Y77.807 E26.3174
G1 X28.801 Y76.606 E26.35933
G1 X29.05 Y75.982 E26.38168
G1 X29.575 Y74.892 E26.42192
G1 X29.831 Y74.442 E26.43914
G1 X30.5 Y73.427 E26.47957
G1 X30.805 Y73.025 E26.49635
G1 X31.47 Y72.262 E26.53002
G1 X32.207 Y71.524 E26.5647
G1 X32.893 Y70.931 E26.59486
G1 X33.33 Y70.6 E26.6131
G1 X34.469 Y69.852 E26.65842
G1 X34.911 Y69.606 E26.67524
G1 X35.779 Y69.195 E26.70719
G1 X36.841 Y68.783 E26.74507
G1 X37.6 Y68.551 E26.77147
G1 X38.506 Y68.337 E26.80243
G1 X39.146 Y68.23 E26.82402
G1 X40.347 Y68.114 E26.86415
G1 X40.755 Y68.1 E26.87773
G1 X179.163 Y68.1 E31.48119
G1 X180.125 Y68.149 E31.51323
G1 X180.548 Y68.193 E31.52738
G1 X181.885 Y68.418 E31.57247
G1 X182.293 Y68.518 E31.58644
G1 X183.52 Y68.909 E31.62928
G1 X184.093 Y69.137 E31.64979
G1 X185.165 Y69.654 E31.68937
G1 X185.671 Y69.942 E31.70874
G1 X186.611 Y70.567 E31.74628
G1 X187.368 Y71.143 E31.77792
G1 X187.718 Y71.448 E31.79336
G1 X188.632 Y72.361 E31.83633
G1 X189.02 Y72.808 E31.85601
G1 X189.664 Y73.663 E31.89162
G1 X190.114 Y74.354 E31.91904
G1 X190.566 Y75.166 E31.94995
G1 X190.971 Y76.031 E31.98172
G1 X191.289 Y76.854 E32.01107
G1 X191.547 Y77.699 E32.04045
G1 X191.768 Y78.634 E32.07241
G1 X191.87 Y79.245 E32.09301
G1 X191.986 Y80.496 E32.1348
G1 X192 Y81.1 E32.15489
G1 X192.001 Y95.882 E32.64654
G1 X191.6 Y97.54 E32.70328
G1 X190.64 Y99.39 E32.7726
G1 X189.213 Y100.714 E32.83734
G1 X187.43 Y101.777 E32.90639
G1 X185.85 Y102.035 E32.95963
G1 X34.24 Y102.1 E38.0022
G1 X32.536 Y101.681 E38.06057
G0 F6000 X32.679 Y101.305
G1 F1200 X30.958 Y100.412 E38.12505
G1 X29.73 Y99.097 E38.1849
G1 X28.706 Y97.381 E38.25136
G1 X28.46 Y95.884 E38.30182
G1 X28.4 Y80.943 E38.79876
G1 X28.447 Y80.016 E38.82963
G1 X28.491 Y79.593 E38.84378
G1 X28.707 Y78.31 E38.88705
G1 X28.807 Y77.902 E38.90102
G1 X29.173 Y76.754 E38.9411
G1 X29.422 Y76.13 E38.96345
G1 X29.923 Y75.09 E39.00184
G1 X30.179 Y74.64 E39.01906
G1 X30.834 Y73.647 E39.05863
G1 X31.107 Y73.288 E39.07363
G1 X31.772 Y72.525 E39.10729
G1 X32.49 Y71.807 E39.14106
G1 X33.135 Y71.25 E39.16941
G1 X33.572 Y70.919 E39.18764
G1 X34.664 Y70.202 E39.23109
G1 X35.106 Y69.956 E39.24791
G1 X35.924 Y69.568 E39.27803
G1 X36.958 Y69.166 E39.31493
G1 X37.717 Y68.934 E39.34132
G1 X38.572 Y68.732 E39.37054
G1 X39.212 Y68.625 E39.39213
G1 X40.361 Y68.514 E39.43052
G1 X40.769 Y68.5 E39.4441
G1 X179.163 Y68.5 E44.0471
G1 X180.084 Y68.547 E44.07777
G1 X180.507 Y68.591 E44.09192
G1 X181.79 Y68.807 E44.13519
G1 X182.198 Y68.907 E44.14916
G1 X183.372 Y69.281 E44.19014
G1 X183.945 Y69.509 E44.21065
G1 X184.967 Y70.002 E44.2484
G1 X185.473 Y70.29 E44.26776
G1 X186.369 Y70.885 E44.30353
G1 X187.105 Y71.445 E44.33429
G1 X187.455 Y71.75 E44.34973
G1 X188.33 Y72.624 E44.39087
G1 X188.7 Y73.049 E44.40961
G1 X189.344 Y73.904 E44.44521
G1 X189.764 Y74.549 E44.47081
G1 X190.216 Y75.361 E44.50172
G1 X190.598 Y76.176 E44.53166
G1 X190.906 Y76.971 E44.56001
G1 X191.164 Y77.816 E44.5894
G1 X191.373 Y78.7 E44.61961
G1 X191.475 Y79.311 E44.64022
G1 X191.586 Y80.505 E44.6801
G1 X191.6 Y81.1 E44.69989
G1 X191.601 Y95.833 E45.18992
G1 X191.222 Y97.4 E45.24354
G1 X190.317 Y99.144 E45.30889
G1 X188.974 Y100.39 E45.36982
G1 X187.29 Y101.394 E45.43503
G1 X185.785 Y101.64 E45.48575
G1 X34.286 Y101.7 E50.52463
G1 X32.679 Y101.305 E50.57967
G0 F6000 X32.822 Y100.929
G1 F1200 X31.203 Y100.089 E50.64033
G1 X30.051 Y98.855 E50.69648
G1 X29.089 Y97.243 E50.75892
G1 X28.855 Y95.819 E50.80692
G1 X28.8 Y80.942 E51.30173
G1 X28.845 Y80.057 E51.3312
G1 X28.889 Y79.634 E51.34535
G1 X29.096 Y78.405 E51.3868
G1 X29.196 Y77.997 E51.40077
G1 X29.545 Y76.902 E51.439
G1 X29.794 Y76.278 E51.46134
G1 X30.271 Y75.288 E51.49789
G1 X30.527 Y74.838 E51.51511
G1 X31.153 Y73.889 E51.55293
G1 X31.409 Y73.551 E51.56703
G1 X32.074 Y72.788 E51.60069
G1 X32.773 Y72.09 E51.63355
G1 X33.377 Y71.569 E51.66008
G1 X33.814 Y71.238 E51.67831
G1 X34.859 Y70.552 E51.71989
G1 X35.301 Y70.306 E51.73671
G1 X36.095 Y69.93 E51.76593
G1 X37.075 Y69.549 E51.8009
G1 X37.834 Y69.317 E51.8273
G1 X38.638 Y69.127 E51.85478
G1 X39.278 Y69.02 E51.87636
G1 X40.375 Y68.914 E51.91302
G1 X40.783 Y68.9 E51.92659
G1 X179.143 Y68.9 E56.52847
G1 X180.043 Y68.945 E56.55844
G1 X180.466 Y68.989 E56.57258
G1 X181.695 Y69.196 E56.61404
G1 X182.103 Y69.296 E56.62801
G1 X183.224 Y69.653 E56.66714
G1 X183.797 Y69.881 E56.68765
G1 X184.769 Y70.35 E56.72354
G1 X185.275 Y70.638 E56.74291
G1 X186.147 Y71.218 E56.77774
G1 X186.842 Y71.747 E56.80679
G1 X187.192 Y72.052 E56.82223
G1 X188.047 Y72.907 E56.86245
G1 X188.38 Y73.29 E56.87933
G1 X189.024 Y74.145 E56.91493
G1 X189.414 Y74.744 E56.9387
G1 X189.866 Y75.556 E56.96961
G1 X190.236 Y76.346 E56.99863
G1 X190.523 Y77.088 E57.02509
G1 X190.781 Y77.933 E57.05447
G1 X190.978 Y78.766 E57.08294
G1 X191.08 Y79.377 E57.10355
G1 X191.186 Y80.515 E57.14156
G1 X191.2 Y81.1 E57.16102
G1 X191.201 Y95.784 E57.64942
G1 X190.844 Y97.26 E57.69992
G1 X189.994 Y98.898 E57.7613
G1 X188.735 Y100.066 E57.81842
G1 X187.15 Y101.011 E57.8798
G1 X185.72 Y101.245 E57.92799
G1 X34.332 Y101.3 E62.96318
G1 X32.822 Y100.929 E63.01489
G0 F6000 X32.964 Y100.552
G1 F1200 X31.448 Y99.766 E63.07169
G1 X30.372 Y98.613 E63.12414
G1 X29.472 Y97.105 E63.18255
G1 X29.25 Y95.754 E63.22809
G1 X29.2 Y80.941 E63.72078
G1 X29.243 Y80.098 E63.74885
G1 X29.287 Y79.675 E63.763
G1 X29.485 Y78.5 E63.80263
G1 X29.585 Y78.092 E63.8166
G1 X29.917 Y77.05 E63.85297
G1 X30.166 Y76.426 E63.87532
G1 X30.619 Y75.486 E63.91002
G1 X30.875 Y75.036 E63.92724
G1 X31.472 Y74.131 E63.9633
G1 X31.728 Y73.793 E63.97741
G1 X32.375 Y73.051 E64.01015
G1 X33.035 Y72.393 E64.04115
G1 X33.619 Y71.888 E64.06683
G1 X34.056 Y71.557 E64.08506
G1 X35.054 Y70.902 E64.12476
G1 X35.496 Y70.656 E64.14159
G1 X36.24 Y70.303 E64.16898
G1 X37.192 Y69.932 E64.20296
G1 X37.951 Y69.7 E64.22936
G1 X38.704 Y69.522 E64.25509
G1 X39.344 Y69.415 E64.27668
G1 X40.389 Y69.314 E64.31159
G1 X40.797 Y69.3 E64.32517
G1 X179.143 Y69.3 E68.92658
G1 X180.002 Y69.343 E68.95519
G1 X180.425 Y69.387 E68.96933
G1 X181.6 Y69.585 E69.00896
G1 X182.008 Y69.685 E69.02293
G1 X183.076 Y70.025 E69.06021
G1 X183.649 Y70.253 E69.08072
G1 X184.571 Y70.698 E69.11477
G1 X185.077 Y70.986 E69.13414
G1 X185.905 Y71.537 E69.16722
G1 X186.579 Y72.049 E69.19537
G1 X186.929 Y72.354 E69.21081
G1 X187.764 Y73.19 E69.25011
G1 X188.06 Y73.531 E69.26513
G1 X188.704 Y74.386 E69.30073
G1 X189.064 Y74.939 E69.32268
G1 X189.516 Y75.751 E69.35359
G1 X189.863 Y76.491 E69.38077
G1 X190.14 Y77.205 E69.40624
G1 X190.398 Y78.05 E69.43563
G1 X190.583 Y78.832 E69.46236
G1 X190.685 Y79.443 E69.48296
G1 X190.786 Y80.525 E69.5191
G1 X190.8 Y81.1 E69.53823
G1 X190.801 Y95.735 E70.025
G1 X190.466 Y97.12 E70.07239
G1 X189.671 Y98.652 E70.1298
G1 X188.496 Y99.742 E70.1831
G1 X187.01 Y100.628 E70.24065
G1 X185.655 Y100.85 E70.28631
G1 X34.379 Y100.9 E75.31778
G1 X32.964 Y100.552 E75.36624
G0 F6000 X34.425 Y100.5
G1 F1200 X33.107 Y100.176 E75.41138
G1 X31.693 Y99.443 E75.46436
G1 X30.693 Y98.371 E75.51312
G1 X29.855 Y96.967 E75.5675
G1 X29.645 Y95.689 E75.61057
G1 X29.6 Y80.94 E76.10113
G1 X29.641 Y80.139 E76.12781
G1 X29.685 Y79.716 E76.14195
G1 X29.874 Y78.595 E76.17976
G1 X29.974 Y78.187 E76.19373
G1 X30.289 Y77.198 E76.22826
G1 X30.538 Y76.574 E76.2506
G1 X30.967 Y75.684 E76.28346
G1 X31.223 Y75.234 E76.30068
G1 X31.791 Y74.373 E76.33499
G1 X32.047 Y74.035 E76.34909
G1 X32.676 Y73.314 E76.38092
G1 X33.297 Y72.695 E76.41008
G1 X33.861 Y72.207 E76.43489
G1 X34.298 Y71.876 E76.45312
G1 X35.249 Y71.252 E76.49095
G1 X35.691 Y71.006 E76.50777
G1 X36.411 Y70.665 E76.53427
G1 X37.309 Y70.315 E76.56633
G1 X38.068 Y70.083 E76.59273
G1 X38.77 Y69.917 E76.61672
G1 X39.41 Y69.81 E76.6383
G1 X40.403 Y69.714 E76.67148
G1 X40.811 Y69.7 E76.68506
G1 X179.143 Y69.7 E81.286
G1 X179.961 Y69.741 E81.31324
G1 X180.384 Y69.785 E81.32739
G1 X181.505 Y69.974 E81.3652
G1 X181.913 Y70.074 E81.37917
G1 X182.928 Y70.397 E81.4146
G1 X183.501 Y70.625 E81.43511
G1 X184.374 Y71.046 E81.46734
G1 X184.855 Y71.319 E81.48574
G1 X185.683 Y71.87 E81.51882
G1 X186.316 Y72.351 E81.54526
G1 X186.666 Y72.656 E81.5607
G1 X187.462 Y73.453 E81.59817
G1 X187.74 Y73.772 E81.61224
G1 X188.384 Y74.627 E81.64784
G1 X188.714 Y75.134 E81.66796
G1 X189.166 Y75.946 E81.69887
G1 X189.49 Y76.636 E81.72423
G1 X189.757 Y77.322 E81.74871
G1 X190.015 Y78.167 E81.77809
G1 X190.188 Y78.898 E81.80308
G1 X190.29 Y79.509 E81.82368
G1 X190.386 Y80.535 E81.85796
G1 X190.4 Y81.1 E81.87675
G1 X190.401 Y95.686 E82.36189
G1 X190.088 Y96.98 E82.40617
G1 X189.348 Y98.406 E82.4596
G1 X188.257 Y99.418 E82.5091
G1 X186.87 Y100.245 E82.56281
G1 X185.59 Y100.455 E82.60595
G1 X34.425 Y100.5 E87.63372
G0 F6000 X34.471 Y100.1
G1 F1200 X33.25 Y99.8 E87.67553
G1 X31.94 Y99.121 E87.72461
G1 X31.012 Y98.126 E87.76986
G1 X30.238 Y96.829 E87.8201
G1 X30.04 Y95.624 E87.86072
G1 X30 Y80.96 E88.34844
G1 X30.039 Y80.18 E88.37442
G1 X30.083 Y79.757 E88.38856
G1 X30.263 Y78.69 E88.42455
G1 X30.363 Y78.282 E88.43853
G1 X30.661 Y77.346 E88.4712
G1 X30.91 Y76.722 E88.49354
G1 X31.315 Y75.882 E88.52456
G1 X31.571 Y75.432 E88.54178
G1 X32.11 Y74.615 E88.57433
G1 X32.366 Y74.277 E88.58844
G1 X32.977 Y73.577 E88.61934
G1 X33.559 Y72.997 E88.64667
G1 X34.103 Y72.526 E88.6706
G1 X34.54 Y72.195 E88.68883
G1 X35.444 Y71.602 E88.72479
G1 X35.886 Y71.356 E88.74162
G1 X36.557 Y71.038 E88.76631
G1 X37.426 Y70.698 E88.79735
G1 X38.185 Y70.466 E88.82375
G1 X38.836 Y70.312 E88.846
G1 X39.476 Y70.205 E88.86758
G1 X40.417 Y70.114 E88.89902
G1 X40.825 Y70.1 E88.9126
G1 X179.143 Y70.1 E93.51308
G1 X179.92 Y70.139 E93.53895
G1 X180.343 Y70.183 E93.5531
G1 X181.41 Y70.363 E93.58909
G1 X181.818 Y70.463 E93.60306
G1 X182.78 Y70.769 E93.63664
G1 X183.353 Y70.997 E93.65715
G1 X184.177 Y71.394 E93.68757
G1 X184.633 Y71.652 E93.70499
G1 X185.461 Y72.203 E93.73807
G1 X186.053 Y72.653 E93.76281
G1 X186.403 Y72.958 E93.77825
G1 X187.16 Y73.716 E93.81388
G1 X187.438 Y74.035 E93.82795
G1 X188.049 Y74.846 E93.86172
G1 X188.364 Y75.329 E93.8809
G1 X188.816 Y76.141 E93.91181
G1 X189.117 Y76.782 E93.93537
G1 X189.374 Y77.439 E93.95883
G1 X189.632 Y78.284 E93.98822
G1 X189.793 Y78.964 E94.01146
G1 X189.895 Y79.575 E94.03206
G1 X189.986 Y80.545 E94.06447
G1 X190 Y81.1 E94.08293
G1 X190.001 Y95.637 E94.56643
G1 X189.71 Y96.84 E94.6076
G1 X189.025 Y98.16 E94.65706
G1 X188.018 Y99.094 E94.70274
G1 X186.73 Y99.862 E94.75262
G1 X185.525 Y100.06 E94.79324
G1 X34.471 Y100.1 E99.81731
G0 F6000 X34.517 Y99.7
G1 F1200 X33.393 Y99.424 E99.85581
G1 X32.187 Y98.799 E99.90099
G1 X31.334 Y97.884 E99.94259
G1 X30.621 Y96.689 E99.98888
G1 X30.435 Y95.559 E100.02696
G1 X30.4 Y80.959 E100.51256
G1 X30.437 Y80.221 E100.53714
G1 X30.481 Y79.798 E100.55129
G1 X30.652 Y78.785 E100.58546
G1 X30.752 Y78.377 E100.59943
G1 X31.033 Y77.494 E100.63025
G1 X31.282 Y76.87 E100.65259
G1 X31.663 Y76.08 E100.68176
G1 X31.919 Y75.63 E100.69898
G1 X32.429 Y74.857 E100.72979
G1 X32.685 Y74.519 E100.74389
G1 X33.278 Y73.84 E100.77387
G1 X33.821 Y73.299 E100.79937
G1 X34.345 Y72.845 E100.82243
G1 X34.782 Y72.514 E100.84066
G1 X35.639 Y71.952 E100.87475
G1 X36.081 Y71.706 E100.89157
G1 X36.728 Y71.4 E100.91537
G1 X37.543 Y71.081 E100.94448
G1 X38.302 Y70.849 E100.97088
G1 X38.902 Y70.707 E100.99139
